; generated by PrusaSlicer 2.4.2+win64 on 2022-09-06 at 18:16:07 UTC

; 

; external perimeters extrusion width = 0.45mm
; perimeters extrusion width = 0.45mm
; infill extrusion width = 0.45mm
; solid infill extrusion width = 0.45mm
; top infill extrusion width = 0.40mm
; first layer extrusion width = 0.42mm

M73 P0 R114
M73 Q0 S117
M201 X1000 Y1000 Z200 E5000 ; sets maximum accelerations, mm/sec^2
M203 X200 Y200 Z12 E120 ; sets maximum feedrates, mm / sec
M204 P1250 R1250 T1250 ; sets acceleration (P, T) and retract acceleration (R), mm/sec^2
M205 X8.00 Y8.00 Z0.40 E4.50 ; sets the jerk limits, mm/sec
M205 S0 T0 ; sets the minimum extruding and travel feed rate, mm/sec
M107
;TYPE:Custom
M862.3 P "MK3S" ; printer model check
M862.1 P0.4 ; nozzle diameter check
M115 U3.10.1 ; tell printer latest fw version
G90 ; use absolute coordinates
M83 ; extruder relative mode
M104 S215 ; set extruder temp
M140 S60 ; set bed temp
M190 S60 ; wait for bed temp
M109 S215 ; wait for extruder temp
G28 W ; home all without mesh bed level
G80 ; mesh bed leveling
G1 Z0.2 F720
G1 Y-3 F1000 ; go outside print area
G92 E0
G1 X60 E9 F1000 ; intro line
G1 X100 E12.5 F1000 ; intro line
G92 E0
M221 S95

; Don't change E values below. Excessive value can damage the printer.

M907 E538 ; set extruder motor current
G21 ; set units to millimeters
G90 ; use absolute coordinates
M83 ; use relative distances for extrusion
M900 K0.05 ; Filament gcode LA 1.5
M900 K30 ; Filament gcode LA 1.0
M107
;LAYER_CHANGE
;Z:0.2
;HEIGHT:0.2
;BEFORE_LAYER_CHANGE
G92 E0.0
;0.2


G1 E-.8 F2100
G1 Z.4 F720
;AFTER_LAYER_CHANGE
;0.2
G1 X69.347 Y54.178 F10800
G1 Z.2 F720
G1 E.8 F2100
M204 S800
;TYPE:Skirt/Brim
;WIDTH:0.42
G1 F1200
G1 X70.337 Y53.24 E.04278
G1 X71.975 Y53.054 E.05168
G1 X195.347 Y83.372 E3.98334
G1 X196.523 Y84.064 E.04278
M73 Q0 S116
G1 X197.157 Y85.68 E.05443
G1 X197.157 Y147.734 E1.94566
G1 X196.766 Y149.041 E.04278
G1 X195.075 Y150.093 E.06243
G1 X157.072 Y154.844 E1.20082
G1 X138.056 Y157.096 E.60042
G1 X113.975 Y157.112 E.75504
G1 X54.937 Y150.087 E1.86414
G1 X53.686 Y149.543 E.04278
M73 P0 R113
G1 X52.843 Y147.726 E.06278
G1 X52.843 Y83.538 E2.01258
G1 X53.159 Y82.354 E.03843
G1 X69.317 Y54.23 E1.01698
M204 S1000
; printing object Crkbd_lowpro_new id:0 copy 0
;WIPE_START
G1 F8640
G1 X70.338 Y53.24 E-.32835
G1 X71.975 Y53.054 E-.38059
G1 X72.19 Y53.107 E-.05107
;WIPE_END
G1 E-.04 F2100
G1 Z.6 F720
G1 X120.448 Y109.841 F10800
G1 Z.2 F720
G1 E.8 F2100
M204 S800
;TYPE:Perimeter
G1 F1200
G1 X120.541 Y109.631 E.0072
G1 X120.8 Y109.266 E.01404
G1 X121.122 Y108.888 E.01558
G1 X122.205 Y108.177 E.04059
G1 X123.424 Y107.769 E.04033
G1 X124.707 Y107.682 E.04031
G1 X125.97 Y107.923 E.04031
G1 X127.131 Y108.474 E.04031
G1 X128.115 Y109.302 E.04031
G1 X128.858 Y110.351 E.04031
G1 X129.311 Y111.554 E.04031
G1 X129.445 Y112.833 E.04031
G1 X129.252 Y114.104 E.04031
G1 X128.744 Y115.285 E.04031
G1 X127.953 Y116.299 E.04031
G1 X126.932 Y117.08 E.04031
G1 X125.747 Y117.578 E.04031
G1 X124.474 Y117.76 E.04031
G1 X123.197 Y117.614 E.04031
G1 X121.998 Y117.149 E.04033
G1 X120.949 Y116.39 E.04059
G1 X120.645 Y115.997 E.01558
G1 X120.403 Y115.62 E.01404
G1 X120.319 Y115.406 E.0072
G1 X120.226 Y115.616 E.0072
G1 X119.967 Y115.981 E.01404
G1 X119.645 Y116.36 E.01558
G1 X118.562 Y117.07 E.04059
G1 X117.343 Y117.479 E.04033
G1 X116.06 Y117.565 E.04031
G1 X114.797 Y117.325 E.04031
G1 X113.636 Y116.773 E.04031
G1 X112.652 Y115.945 E.04031
G1 X111.909 Y114.896 E.04031
G1 X111.456 Y113.693 E.04031
G1 X111.322 Y112.414 E.04031
G1 X111.515 Y111.143 E.04031
G1 X112.023 Y109.963 E.04031
G1 X112.814 Y108.949 E.04031
G1 X113.835 Y108.167 E.04031
G1 X115.02 Y107.67 E.04031
G1 X116.293 Y107.488 E.04031
G1 X117.57 Y107.634 E.04031
G1 X118.77 Y108.098 E.04033
G1 X119.818 Y108.857 E.04059
G1 X120.122 Y109.25 E.01558
G1 X120.364 Y109.627 E.01404
G1 X120.426 Y109.785 E.00532
M204 S1000
G1 X120.426 Y110.772 F10800
M204 S800
;TYPE:External perimeter
G1 F1200
G1 X120.56 Y110.515 E.00908
G1 X120.87 Y109.819 E.0239
G1 X121.098 Y109.498 E.01235
G1 X121.374 Y109.173 E.01336
G1 X122.371 Y108.519 E.03737
G1 X123.498 Y108.142 E.03728
G1 X124.684 Y108.062 E.03727
G1 X125.852 Y108.284 E.03727
G1 X126.925 Y108.794 E.03727
G1 X127.835 Y109.559 E.03727
G1 X128.522 Y110.53 E.03727
G1 X128.941 Y111.642 E.03727
G1 X129.065 Y112.824 E.03727
G1 X128.887 Y113.999 E.03727
G1 X128.417 Y115.091 E.03727
G1 X127.686 Y116.029 E.03727
G1 X126.742 Y116.751 E.03727
G1 X125.646 Y117.211 E.03727
G1 X124.469 Y117.379 E.03727
G1 X123.288 Y117.245 E.03727
G1 X122.179 Y116.815 E.03728
G1 X121.214 Y116.116 E.03737
G1 X120.953 Y115.779 E.01336
G1 X120.74 Y115.448 E.01235
G1 X120.463 Y114.738 E.0239
G1 X120.341 Y114.476 E.00908
G1 X120.207 Y114.732 E.00908
G1 X119.897 Y115.428 E.0239
G1 X119.669 Y115.75 E.01235
G1 X119.393 Y116.074 E.01336
G1 X118.396 Y116.728 E.03737
G1 X117.269 Y117.106 E.03728
G1 X116.083 Y117.186 E.03727
G1 X114.915 Y116.964 E.03727
G1 X113.842 Y116.453 E.03727
G1 X112.932 Y115.688 E.03727
G1 X112.245 Y114.718 E.03727
G1 X111.826 Y113.605 E.03727
G1 X111.702 Y112.423 E.03727
G1 X111.881 Y111.248 E.03727
G1 X112.351 Y110.156 E.03727
G1 X113.081 Y109.219 E.03727
G1 X114.025 Y108.496 E.03727
G1 X115.121 Y108.036 E.03727
G1 X116.298 Y107.868 E.03727
G1 X117.479 Y108.003 E.03727
G1 X118.588 Y108.432 E.03728
G1 X119.553 Y109.131 E.03737
G1 X119.814 Y109.468 E.01336
G1 X120.027 Y109.799 E.01235
G1 X120.401 Y110.717 E.03108
M204 S1000
G1 X120.477 Y110.487 F10800
;WIPE_START
G1 F8640
G1 X120.56 Y110.515 E-.05944
G1 X120.87 Y109.819 E-.17598
G1 X121.098 Y109.498 E-.09094
G1 X121.374 Y109.173 E-.09839
G1 X122.371 Y108.519 E-.27518
G1 X122.617 Y108.437 E-.06007
;WIPE_END
G1 E-.04 F2100
G1 Z.6 F720
G1 X155.59 Y146.547 F10800
G1 Z.2 F720
G1 E.8 F2100
M204 S800
;TYPE:Perimeter
G1 F1200
G1 X155.59 Y151.298 E.14894
G1 X136.589 Y151.298 E.59577
G1 X136.589 Y153.548 E.07055
G1 X115.162 Y153.548 E.67183
G1 X115.162 Y151.298 E.07055
G1 X96.161 Y151.298 E.59577
G1 X96.161 Y148.798 E.07839
G1 X77.659 Y148.798 E.58011
G1 X77.659 Y146.039 E.08648
G1 X73.185 Y146.039 E.14027
G1 X73.185 Y146.54 E.01568
G1 X68.766 Y146.541 E.13857
G1 X69.255 Y146.337 E.01662
G1 X70.286 Y145.543 E.04082
G1 X71.08 Y144.512 E.0408
G1 X71.584 Y143.312 E.0408
G1 X71.763 Y142.023 E.0408
G1 X71.607 Y140.731 E.0408
G1 X71.126 Y139.522 E.0408
G1 X70.351 Y138.476 E.0408
G1 X69.335 Y137.663 E.0408
G1 X68.143 Y137.138 E.04083
G1 X66.845 Y136.937 E.04118
G1 X66.342 Y137.009 E.01595
G1 X65.914 Y137.116 E.01383
G1 X65.773 Y137.173 E.00476
G1 X65.831 Y137.032 E.00476
G1 X65.937 Y136.604 E.01383
G1 X66.01 Y136.101 E.01595
G1 X65.809 Y134.803 E.04118
G1 X65.283 Y133.612 E.04083
G1 X64.47 Y132.595 E.0408
G1 X63.425 Y131.82 E.0408
G1 X62.216 Y131.339 E.0408
G1 X60.924 Y131.183 E.0408
G1 X59.635 Y131.363 E.0408
G1 X58.435 Y131.866 E.0408
G1 X57.403 Y132.66 E.0408
G1 X56.609 Y133.692 E.04082
G1 X56.407 Y134.177 E.01648
G1 X56.407 Y83.855 E1.5778
G1 X65.685 Y67.706 E.58394
G1 X65.619 Y68.228 E.01647
G1 X65.793 Y69.518 E.04082
G1 X66.292 Y70.72 E.0408
G1 X67.082 Y71.754 E.0408
G1 X68.109 Y72.552 E.0408
G1 X69.307 Y73.06 E.0408
G1 X70.595 Y73.245 E.0408
G1 X71.888 Y73.095 E.0408
G1 X73.099 Y72.618 E.0408
G1 X74.149 Y71.847 E.04083
G1 X74.969 Y70.822 E.04118
G1 X75.157 Y70.35 E.01594
G1 X75.279 Y69.926 E.01383
G1 X75.299 Y69.775 E.00477
G1 X75.392 Y69.895 E.00477
G1 X75.711 Y70.2 E.01383
G1 X76.111 Y70.514 E.01594
G1 X77.336 Y70.986 E.04118
G1 X78.631 Y71.124 E.04083
G1 X79.917 Y70.925 E.0408
G1 X81.11 Y70.405 E.0408
G1 X82.13 Y69.596 E.0408
G1 X82.909 Y68.554 E.0408
G1 X83.395 Y67.347 E.0408
G1 X83.556 Y66.055 E.0408
G1 X83.382 Y64.766 E.0408
G1 X82.883 Y63.563 E.04082
G1 X82.571 Y63.156 E.01608
G1 X88.696 Y66.682 E.2216
G1 X126.356 Y72.281 E1.1938
G1 X137 Y86.868 E.56618
G1 X181.232 Y86.867 E1.38686
G1 X180.746 Y87.07 E.01651
G1 X179.714 Y87.864 E.04083
G1 X178.92 Y88.895 E.0408
G1 X178.416 Y90.095 E.0408
G1 X178.237 Y91.384 E.0408
G1 X178.393 Y92.676 E.0408
G1 X178.874 Y93.885 E.0408
G1 X179.649 Y94.931 E.0408
G1 X180.665 Y95.743 E.0408
G1 X181.857 Y96.269 E.04083
G1 X183.155 Y96.47 E.04118
G1 X183.658 Y96.398 E.01595
G1 X184.086 Y96.291 E.01383
G1 X184.254 Y96.223 E.00567
G1 X184.141 Y96.517 E.00987
G1 X184.025 Y97.07 E.01772
G1 X183.993 Y97.309 E.00754
G1 X184.191 Y98.603 E.04105
G1 X184.717 Y99.795 E.04085
G1 X185.53 Y100.812 E.0408
G1 X186.575 Y101.586 E.0408
G1 X187.784 Y102.068 E.0408
G1 X189.076 Y102.224 E.0408
G1 X190.365 Y102.044 E.0408
G1 X191.565 Y101.541 E.0408
G1 X192.597 Y100.747 E.0408
G1 X193.391 Y99.715 E.04082
G1 X193.593 Y99.23 E.01648
G1 X193.594 Y134.981 E1.12093
G1 X193.24 Y134.258 E.02525
G1 X192.404 Y133.287 E.04017
G1 X191.351 Y132.558 E.04016
G1 X190.148 Y132.117 E.04016
G1 X188.873 Y131.994 E.04016
G1 X187.608 Y132.196 E.04016
G1 X186.435 Y132.711 E.04016
G1 X185.43 Y133.504 E.04016
G1 X184.656 Y134.525 E.04016
G1 X184.165 Y135.707 E.04016
G1 X183.989 Y136.993 E.04069
G1 X182.691 Y136.975 E.04069
G1 X181.449 Y137.285 E.04016
G1 X180.324 Y137.898 E.04016
G1 X179.39 Y138.775 E.04016
G1 X178.707 Y139.858 E.04016
G1 X178.319 Y141.079 E.04016
G1 X178.25 Y142.358 E.04016
G1 X178.507 Y143.613 E.04016
G1 X179.071 Y144.763 E.04016
G1 X179.906 Y145.733 E.04016
G1 X180.961 Y146.463 E.0402
G1 X181.196 Y146.548 E.00784
G1 X155.65 Y146.547 E.80095
M204 S1000
;WIPE_START
G1 F8640
G1 X155.609 Y149.839 E-.76
;WIPE_END
G1 E-.04 F2100
G1 Z.6 F720
G1 X73.876 Y64.508 F10800
G1 Z.2 F720
G1 E.8 F2100
M204 S800
G1 F1200
G1 X73.783 Y64.388 E.00477
G1 X73.464 Y64.083 E.01383
G1 X73.064 Y63.77 E.01594
G1 X71.839 Y63.297 E.04118
G1 X70.544 Y63.16 E.04083
G1 X69.257 Y63.358 E.0408
G1 X68.064 Y63.879 E.04083
G1 X67.73 Y64.146 E.01341
G1 X71.845 Y56.984 E.259
G1 X78.996 Y61.099 E.25867
G1 X78.58 Y61.038 E.01316
G1 X77.287 Y61.189 E.04083
G1 X76.076 Y61.665 E.0408
G1 X75.026 Y62.436 E.04083
G1 X74.205 Y63.461 E.04118
G1 X74.018 Y63.934 E.01594
G1 X73.884 Y64.449 E.01669
M204 S1000
;WIPE_START
G1 F8640
G1 X73.783 Y64.388 E-.02727
G1 X73.464 Y64.083 E-.10183
G1 X73.064 Y63.77 E-.11742
G1 X71.839 Y63.297 E-.30323
G1 X70.933 Y63.201 E-.21024
;WIPE_END
G1 E-.04 F2100
G1 Z.6 F720
G1 X75.045 Y68.835 F10800
G1 Z.2 F720
G1 E.8 F2100
M204 S800
;TYPE:External perimeter
G1 F1200
G1 X74.909 Y69.848 E.03204
G1 X74.8 Y70.228 E.01238
G1 X74.64 Y70.631 E.01359
G1 X73.885 Y71.573 E.03785
G1 X72.915 Y72.285 E.03774
G1 X71.796 Y72.726 E.03773
G1 X70.601 Y72.865 E.03773
G1 X69.41 Y72.694 E.03773
G1 X68.302 Y72.224 E.03773
G1 X67.352 Y71.486 E.03773
G1 X66.621 Y70.53 E.03773
G1 X66.16 Y69.418 E.03773
G1 X65.999 Y68.226 E.03773
G1 X66.151 Y67.028 E.03785
G1 X66.641 Y65.94 E.03741
G1 X67.317 Y64.957 E.0374
G1 X68.26 Y64.205 E.03785
G1 X69.363 Y63.723 E.03774
G1 X70.553 Y63.54 E.03773
G1 X71.749 Y63.667 E.03774
G1 X72.876 Y64.101 E.03785
G1 X73.217 Y64.368 E.01359
G1 X73.502 Y64.642 E.01238
G1 X74.13 Y65.448 E.03204
G1 X74.266 Y64.435 E.03204
G1 X74.375 Y64.055 E.01238
G1 X74.535 Y63.653 E.01359
G1 X75.29 Y62.711 E.03785
G1 X76.26 Y61.998 E.03774
G1 X77.379 Y61.558 E.03773
G1 X78.575 Y61.418 E.03774
G1 X79.769 Y61.594 E.03785
G1 X80.847 Y62.104 E.03738
G1 X81.819 Y62.795 E.0374
G1 X82.553 Y63.753 E.03786
G1 X83.014 Y64.865 E.03773
G1 X83.176 Y66.057 E.03773
G1 X83.027 Y67.251 E.03773
G1 X82.577 Y68.367 E.03773
G1 X81.857 Y69.331 E.03773
G1 X80.914 Y70.079 E.03773
G1 X79.811 Y70.56 E.03773
G1 X78.622 Y70.743 E.03773
G1 X77.425 Y70.616 E.03774
G1 X76.299 Y70.182 E.03785
G1 X75.958 Y69.915 E.01359
G1 X75.673 Y69.642 E.01238
G1 X75.082 Y68.883 E.03016
M204 S1000
G1 X75.103 Y69.231 F10800
;WIPE_START
G1 F8640
G1 X74.909 Y69.848 E-.2265
G1 X74.8 Y70.228 E-.09118
G1 X74.64 Y70.631 E-.10005
G1 X73.885 Y71.573 E-.27873
G1 X73.664 Y71.736 E-.06354
;WIPE_END
G1 E-.04 F2100
G1 Z.6 F720
G1 X65.085 Y137.861 F10800
G1 Z.2 F720
G1 E.8 F2100
M204 S800
G1 F1200
G1 X66.031 Y137.475 E.03204
G1 X66.414 Y137.38 E.01238
G1 X66.843 Y137.318 E.01359
G1 X68.036 Y137.503 E.03785
G1 X69.137 Y137.989 E.03774
G1 X70.077 Y138.74 E.03773
G1 X70.794 Y139.707 E.03773
G1 X71.239 Y140.825 E.03773
G1 X71.383 Y142.019 E.03773
G1 X71.217 Y143.211 E.03773
G1 X70.751 Y144.321 E.03773
G1 X70.017 Y145.274 E.03773
G1 X69.064 Y146.008 E.03773
G1 X67.95 Y146.473 E.03786
G1 X66.762 Y146.59 E.03741
G1 X65.573 Y146.494 E.0374
G1 X64.45 Y146.05 E.03785
G1 X63.483 Y145.334 E.03774
G1 X62.732 Y144.394 E.03773
G1 X62.246 Y143.293 E.03774
G1 X62.061 Y142.1 E.03785
G1 X62.123 Y141.671 E.01359
G1 X62.218 Y141.288 E.01238
G1 X62.605 Y140.342 E.03204
G1 X61.658 Y140.728 E.03204
G1 X61.275 Y140.823 E.01238
G1 X60.846 Y140.885 E.01359
G1 X59.653 Y140.7 E.03785
G1 X58.552 Y140.214 E.03774
G1 X57.612 Y139.463 E.03773
G1 X56.896 Y138.496 E.03774
G1 X56.452 Y137.373 E.03785
G1 X56.356 Y136.184 E.0374
G1 X56.473 Y134.997 E.03741
G1 X56.938 Y133.883 E.03786
G1 X57.672 Y132.929 E.03773
G1 X58.626 Y132.195 E.03773
G1 X59.735 Y131.729 E.03773
G1 X60.927 Y131.563 E.03773
G1 X62.122 Y131.707 E.03773
G1 X63.24 Y132.153 E.03773
G1 X64.206 Y132.869 E.03773
G1 X64.958 Y133.809 E.03773
G1 X65.444 Y134.91 E.03774
G1 X65.628 Y136.103 E.03785
G1 X65.566 Y136.532 E.01359
G1 X65.471 Y136.915 E.01238
G1 X65.108 Y137.806 E.03016
M204 S1000
G1 X65.4 Y137.614 F10800
;WIPE_START
G1 F8640
G1 X66.031 Y137.475 E-.22647
G1 X66.414 Y137.38 E-.09118
G1 X66.843 Y137.318 E-.10005
G1 X68.036 Y137.503 E-.27875
G1 X68.288 Y137.614 E-.06354
;WIPE_END
G1 E-.04 F2100
G1 Z.6 F720
G1 X61.916 Y141.03 F10800
G1 Z.2 F720
G1 E.8 F2100
M204 S800
;TYPE:Perimeter
G1 F1200
G1 X61.859 Y141.171 E.00476
G1 X61.753 Y141.599 E.01383
G1 X61.68 Y142.102 E.01595
G1 X61.881 Y143.4 E.04118
G1 X62.407 Y144.591 E.04083
G1 X63.219 Y145.608 E.0408
G1 X64.266 Y146.383 E.04083
G1 X64.663 Y146.54 E.01339
M73 P1 R113
G1 X56.407 Y146.539 E.25887
G1 X56.406 Y138.283 E.25887
G1 X56.563 Y138.681 E.0134
G1 X57.339 Y139.727 E.04083
G1 X58.355 Y140.539 E.0408
M73 Q1 S116
G1 X59.547 Y141.065 E.04083
G1 X60.844 Y141.266 E.04118
G1 X61.348 Y141.194 E.01595
G1 X61.861 Y141.053 E.01668
M204 S1000
;WIPE_START
G1 F8640
G1 X61.859 Y141.171 E-.02721
G1 X61.753 Y141.599 E-.10183
G1 X61.68 Y142.102 E-.11743
G1 X61.881 Y143.4 E-.30324
G1 X62.249 Y144.233 E-.21028
;WIPE_END
G1 E-.04 F2100
G1 Z.6 F720
G1 X187.395 Y93.065 F10800
G1 Z.2 F720
G1 E.8 F2100
M204 S800
;TYPE:External perimeter
G1 F1200
G1 X188.342 Y92.679 E.03204
G1 X188.725 Y92.584 E.01238
G1 X189.154 Y92.522 E.01359
G1 X190.347 Y92.707 E.03785
G1 X191.448 Y93.193 E.03774
G1 X192.388 Y93.944 E.03773
G1 X193.104 Y94.911 E.03774
G1 X193.548 Y96.034 E.03785
G1 X193.644 Y97.223 E.0374
G1 X193.527 Y98.41 E.03741
G1 X193.062 Y99.524 E.03786
G1 X192.328 Y100.478 E.03773
G1 X191.374 Y101.212 E.03773
G1 X190.265 Y101.678 E.03773
G1 X189.073 Y101.844 E.03773
G1 X187.878 Y101.699 E.03773
G1 X186.76 Y101.254 E.03773
G1 X185.794 Y100.538 E.03773
G1 X185.042 Y99.598 E.03773
G1 X184.556 Y98.497 E.03775
M73 Q1 S115
G1 X184.374 Y97.305 E.0378
G1 X184.504 Y96.624 E.02174
G1 X184.918 Y95.545 E.03625
G1 X183.969 Y95.932 E.03214
G1 X183.586 Y96.027 E.01238
G1 X183.157 Y96.089 E.01359
G1 X181.964 Y95.904 E.03785
G1 X180.863 Y95.418 E.03774
G1 X179.923 Y94.667 E.03773
G1 X179.206 Y93.7 E.03773
G1 X178.761 Y92.582 E.03773
G1 X178.617 Y91.388 E.03773
G1 X178.783 Y90.196 E.03773
G1 X179.249 Y89.086 E.03773
G1 X179.983 Y88.133 E.03773
G1 X180.936 Y87.399 E.03774
G1 X182.05 Y86.936 E.03781
G1 X183.239 Y86.817 E.03748
G1 X184.427 Y86.913 E.03736
G1 X185.55 Y87.356 E.03785
G1 X186.517 Y88.073 E.03774
G1 X187.268 Y89.013 E.03773
G1 X187.754 Y90.114 E.03774
G1 X187.939 Y91.307 E.03785
G1 X187.877 Y91.736 E.01359
G1 X187.782 Y92.119 E.01238
G1 X187.418 Y93.01 E.03016
M204 S1000
G1 X187.71 Y92.818 F10800
G1 X188.084 Y92.377
M204 S800
;TYPE:Perimeter
G1 F1200
G1 X188.141 Y92.236 E.00476
G1 X188.247 Y91.808 E.01383
G1 X188.32 Y91.305 E.01595
G1 X188.119 Y90.007 E.04118
G1 X187.593 Y88.816 E.04083
G1 X186.781 Y87.799 E.0408
G1 X185.734 Y87.024 E.04083
G1 X185.336 Y86.867 E.01341
G1 X193.593 Y86.867 E.25889
G1 X193.594 Y95.124 E.25888
G1 X193.437 Y94.726 E.01341
G1 X192.661 Y93.68 E.04083
