; generated by PrusaSlicer 2.4.2+win64 on 2022-09-06 at 18:14:24 UTC

; 

; external perimeters extrusion width = 0.45mm
; perimeters extrusion width = 0.45mm
; infill extrusion width = 0.45mm
; solid infill extrusion width = 0.45mm
; top infill extrusion width = 0.40mm
; first layer extrusion width = 0.42mm

M73 P0 R114
M73 Q0 S116
M201 X1000 Y1000 Z200 E5000 ; sets maximum accelerations, mm/sec^2
M203 X200 Y200 Z12 E120 ; sets maximum feedrates, mm / sec
M204 P1250 R1250 T1250 ; sets acceleration (P, T) and retract acceleration (R), mm/sec^2
M205 X8.00 Y8.00 Z0.40 E4.50 ; sets the jerk limits, mm/sec
M205 S0 T0 ; sets the minimum extruding and travel feed rate, mm/sec
M107
;TYPE:Custom
M862.3 P "MK3S" ; printer model check
M862.1 P0.4 ; nozzle diameter check
M115 U3.10.1 ; tell printer latest fw version
G90 ; use absolute coordinates
M83 ; extruder relative mode
M104 S215 ; set extruder temp
M140 S60 ; set bed temp
M190 S60 ; wait for bed temp
M109 S215 ; wait for extruder temp
G28 W ; home all without mesh bed level
G80 ; mesh bed leveling
G1 Z0.2 F720
G1 Y-3 F1000 ; go outside print area
G92 E0
G1 X60 E9 F1000 ; intro line
G1 X100 E12.5 F1000 ; intro line
G92 E0
M221 S95

; Don't change E values below. Excessive value can damage the printer.

M907 E538 ; set extruder motor current
G21 ; set units to millimeters
G90 ; use absolute coordinates
M83 ; use relative distances for extrusion
M900 K0.05 ; Filament gcode LA 1.5
M900 K30 ; Filament gcode LA 1.0
M107
;LAYER_CHANGE
;Z:0.2
;HEIGHT:0.2
;BEFORE_LAYER_CHANGE
G92 E0.0
;0.2


G1 E-.8 F2100
G1 Z.4 F720
;AFTER_LAYER_CHANGE
;0.2
G1 X54.653 Y83.372 F10800
G1 Z.2 F720
G1 E.8 F2100
M204 S800
;TYPE:Skirt/Brim
;WIDTH:0.42
M73 P0 R113
G1 F1200
G1 X178.025 Y53.054 E3.98334
G1 X179.387 Y53.122 E.04278
G1 X180.653 Y54.178 E.05168
G1 X196.841 Y82.354 E1.01886
G1 X197.157 Y83.538 E.03843
G1 X197.157 Y147.726 E2.01258
G1 X196.766 Y149.033 E.04278
G1 X195.063 Y150.087 E.06278
G1 X136.025 Y157.112 E1.86414
G1 X111.944 Y157.096 E.75504
G1 X92.928 Y154.844 E.60042
G1 X54.925 Y150.093 E1.20082
G1 X53.677 Y149.542 E.04278
G1 X52.843 Y147.734 E.06243
G1 X52.843 Y85.68 E1.94566
G1 X53.234 Y84.373 E.04278
G1 X54.604 Y83.407 E.05255
M204 S1000
; printing object Crkbd_lowpro_new id:0 copy 0
;WIPE_START
G1 F8640
G1 X57.8 Y82.621 E-.76
;WIPE_END
G1 E-.04 F2100
G1 Z.6 F720
G1 X129.681 Y115.406 F10800
G1 Z.2 F720
G1 E.8 F2100
M204 S800
;TYPE:Perimeter
G1 F1200
G1 X129.597 Y115.62 E.0072
G1 X129.355 Y115.997 E.01404
G1 X129.051 Y116.39 E.01558
G1 X128.002 Y117.149 E.04059
G1 X126.803 Y117.614 E.04033
G1 X125.526 Y117.76 E.04031
G1 X124.253 Y117.578 E.04031
G1 X123.068 Y117.08 E.04031
G1 X122.047 Y116.299 E.04031
G1 X121.256 Y115.285 E.04031
G1 X120.748 Y114.104 E.04031
G1 X120.555 Y112.833 E.04031
G1 X120.689 Y111.554 E.04031
G1 X121.142 Y110.351 E.04031
G1 X121.885 Y109.302 E.04031
G1 X122.869 Y108.474 E.04031
G1 X124.03 Y107.923 E.04031
G1 X125.293 Y107.682 E.04031
G1 X126.576 Y107.769 E.04031
G1 X127.795 Y108.177 E.04033
G1 X128.878 Y108.888 E.04059
G1 X129.2 Y109.266 E.01558
G1 X129.459 Y109.631 E.01404
G1 X129.552 Y109.841 E.0072
G1 X129.636 Y109.627 E.0072
G1 X129.878 Y109.25 E.01404
G1 X130.182 Y108.857 E.01558
G1 X131.23 Y108.098 E.04059
G1 X132.43 Y107.634 E.04033
G1 X133.707 Y107.488 E.04031
G1 X134.98 Y107.67 E.04031
G1 X136.165 Y108.167 E.04031
G1 X137.186 Y108.949 E.04031
G1 X137.977 Y109.963 E.04031
G1 X138.485 Y111.143 E.04031
G1 X138.678 Y112.414 E.04031
G1 X138.544 Y113.693 E.04031
G1 X138.091 Y114.896 E.04031
G1 X137.348 Y115.945 E.04031
G1 X136.364 Y116.773 E.04031
G1 X135.203 Y117.325 E.04031
G1 X133.94 Y117.565 E.04031
G1 X132.657 Y117.479 E.04031
G1 X131.438 Y117.07 E.04033
G1 X130.355 Y116.36 E.04059
G1 X130.033 Y115.981 E.01558
G1 X129.774 Y115.616 E.01404
G1 X129.705 Y115.461 E.00532
M204 S1000
G1 X129.659 Y114.476 F10800
M204 S800
;TYPE:External perimeter
G1 F1200
G1 X129.537 Y114.738 E.00908
G1 X129.259 Y115.448 E.0239
G1 X129.047 Y115.779 E.01235
G1 X128.786 Y116.116 E.01336
G1 X127.821 Y116.815 E.03737
G1 X126.712 Y117.245 E.03728
G1 X125.531 Y117.379 E.03727
G1 X124.354 Y117.211 E.03727
G1 X123.258 Y116.751 E.03727
G1 X122.314 Y116.029 E.03727
G1 X121.583 Y115.091 E.03727
G1 X121.113 Y113.999 E.03727
G1 X120.935 Y112.824 E.03727
G1 X121.059 Y111.642 E.03727
G1 X121.478 Y110.53 E.03727
G1 X122.165 Y109.559 E.03727
G1 X123.075 Y108.794 E.03727
G1 X124.148 Y108.284 E.03727
G1 X125.316 Y108.062 E.03727
G1 X126.502 Y108.142 E.03727
G1 X127.629 Y108.519 E.03728
G1 X128.626 Y109.173 E.03737
G1 X128.902 Y109.498 E.01336
G1 X129.13 Y109.819 E.01235
G1 X129.44 Y110.515 E.0239
G1 X129.574 Y110.772 E.00908
G1 X129.696 Y110.509 E.00908
G1 X129.973 Y109.799 E.0239
G1 X130.186 Y109.468 E.01235
G1 X130.447 Y109.131 E.01336
G1 X131.412 Y108.432 E.03737
G1 X132.521 Y108.003 E.03728
G1 X133.702 Y107.868 E.03727
G1 X134.879 Y108.036 E.03727
G1 X135.975 Y108.496 E.03727
G1 X136.919 Y109.219 E.03727
G1 X137.649 Y110.156 E.03727
G1 X138.119 Y111.248 E.03727
G1 X138.298 Y112.423 E.03727
G1 X138.174 Y113.605 E.03727
G1 X137.755 Y114.718 E.03727
G1 X137.068 Y115.688 E.03727
G1 X136.158 Y116.453 E.03727
G1 X135.085 Y116.964 E.03727
G1 X133.917 Y117.186 E.03727
G1 X132.731 Y117.106 E.03727
G1 X131.604 Y116.728 E.03728
G1 X130.607 Y116.074 E.03737
G1 X130.331 Y115.75 E.01336
G1 X130.103 Y115.428 E.01235
G1 X129.687 Y114.529 E.03108
M204 S1000
G1 X129.622 Y114.763 F10800
;WIPE_START
G1 F8640
G1 X129.537 Y114.738 E-.05944
G1 X129.259 Y115.448 E-.17598
G1 X129.047 Y115.779 E-.09094
G1 X128.786 Y116.116 E-.09839
G1 X127.821 Y116.815 E-.27518
G1 X127.578 Y116.909 E-.06007
;WIPE_END
G1 E-.04 F2100
G1 Z.6 F720
G1 X176.815 Y146.416 F10800
G1 Z.2 F720
G1 E.8 F2100
M204 S800
;TYPE:Perimeter
G1 F1200
G1 X176.815 Y146.039 E.01182
G1 X172.341 Y146.039 E.14027
G1 X172.341 Y148.798 E.08648
G1 X153.839 Y148.798 E.58011
G1 X153.839 Y151.298 E.07839
G1 X134.838 Y151.298 E.59577
G1 X134.838 Y153.548 E.07055
G1 X113.411 Y153.548 E.67183
G1 X113.411 Y151.298 E.07055
G1 X94.41 Y151.298 E.59577
G1 X94.41 Y146.547 E.14894
G1 X68.804 Y146.548 E.80284
G1 X69.039 Y146.463 E.00784
G1 X70.094 Y145.733 E.0402
G1 X70.929 Y144.763 E.04016
G1 X71.493 Y143.613 E.04016
G1 X71.75 Y142.358 E.04016
G1 X71.681 Y141.079 E.04016
G1 X71.293 Y139.858 E.04016
G1 X70.61 Y138.775 E.04016
G1 X69.676 Y137.898 E.04016
G1 X68.551 Y137.285 E.04016
G1 X67.309 Y136.975 E.04016
G1 X66.011 Y136.993 E.04069
G1 X65.835 Y135.707 E.04069
G1 X65.344 Y134.525 E.04016
G1 X64.57 Y133.504 E.04016
G1 X63.565 Y132.711 E.04016
G1 X62.392 Y132.196 E.04016
G1 X61.127 Y131.994 E.04016
G1 X59.852 Y132.117 E.04016
G1 X58.649 Y132.558 E.04016
G1 X57.596 Y133.287 E.04016
G1 X56.76 Y134.258 E.04017
G1 X56.406 Y134.981 E.02525
G1 X56.407 Y99.23 E1.12093
G1 X56.609 Y99.715 E.01648
G1 X57.403 Y100.747 E.04082
G1 X58.435 Y101.541 E.0408
G1 X59.635 Y102.044 E.0408
G1 X60.924 Y102.224 E.0408
G1 X62.216 Y102.068 E.0408
G1 X63.425 Y101.586 E.0408
G1 X64.47 Y100.812 E.0408
G1 X65.283 Y99.795 E.0408
G1 X65.809 Y98.603 E.04085
G1 X66.007 Y97.309 E.04105
G1 X65.975 Y97.07 E.00754
G1 X65.859 Y96.517 E.01772
G1 X65.746 Y96.223 E.00987
G1 X65.914 Y96.291 E.00567
G1 X66.342 Y96.398 E.01383
G1 X66.845 Y96.47 E.01595
G1 X68.143 Y96.269 E.04118
G1 X69.335 Y95.743 E.04083
G1 X70.351 Y94.931 E.0408
G1 X71.126 Y93.885 E.0408
G1 X71.607 Y92.676 E.0408
G1 X71.763 Y91.384 E.0408
G1 X71.584 Y90.095 E.0408
G1 X71.08 Y88.895 E.0408
G1 X70.286 Y87.864 E.0408
G1 X69.255 Y87.07 E.04082
G1 X68.77 Y86.867 E.01647
G1 X113 Y86.868 E1.3868
G1 X123.644 Y72.281 E.56618
G1 X161.304 Y66.682 E1.1938
G1 X167.429 Y63.156 E.2216
G1 X167.117 Y63.563 E.01609
G1 X166.618 Y64.766 E.04082
G1 X166.444 Y66.055 E.0408
G1 X166.605 Y67.347 E.0408
G1 X167.091 Y68.554 E.0408
G1 X167.87 Y69.596 E.0408
G1 X168.89 Y70.405 E.0408
G1 X170.083 Y70.925 E.0408
G1 X171.369 Y71.124 E.0408
G1 X172.664 Y70.986 E.04083
G1 X173.889 Y70.514 E.04118
G1 X174.289 Y70.2 E.01594
G1 X174.608 Y69.895 E.01383
G1 X174.701 Y69.775 E.00477
G1 X174.721 Y69.926 E.00477
G1 X174.843 Y70.35 E.01383
G1 X175.031 Y70.822 E.01594
G1 X175.851 Y71.847 E.04118
G1 X176.901 Y72.618 E.04083
G1 X178.112 Y73.095 E.0408
G1 X179.405 Y73.245 E.0408
G1 X180.693 Y73.06 E.0408
G1 X181.891 Y72.552 E.0408
G1 X182.918 Y71.754 E.0408
G1 X183.708 Y70.72 E.0408
G1 X184.207 Y69.518 E.0408
G1 X184.381 Y68.228 E.04082
G1 X184.315 Y67.704 E.01653
G1 X193.593 Y83.855 E.584
G1 X193.593 Y134.177 E1.5778
G1 X193.391 Y133.692 E.01647
M73 Q0 S115
G1 X192.597 Y132.66 E.04082
G1 X191.565 Y131.866 E.0408
G1 X190.365 Y131.363 E.0408
G1 X189.076 Y131.183 E.0408
G1 X187.784 Y131.339 E.0408
G1 X186.575 Y131.82 E.0408
G1 X185.53 Y132.595 E.0408
G1 X184.717 Y133.612 E.0408
G1 X184.191 Y134.803 E.04083
G1 X183.99 Y136.101 E.04118
G1 X184.063 Y136.604 E.01595
G1 X184.169 Y137.032 E.01383
G1 X184.227 Y137.173 E.00476
G1 X184.086 Y137.116 E.00476
G1 X183.658 Y137.009 E.01383
G1 X183.155 Y136.937 E.01595
G1 X181.857 Y137.138 E.04118
G1 X180.665 Y137.663 E.04083
G1 X179.649 Y138.476 E.0408
G1 X178.874 Y139.522 E.0408
G1 X178.393 Y140.731 E.0408
G1 X178.237 Y142.023 E.0408
G1 X178.416 Y143.312 E.0408
G1 X178.92 Y144.512 E.0408
G1 X179.714 Y145.543 E.0408
G1 X180.745 Y146.337 E.04082
G1 X181.234 Y146.541 E.01662
G1 X176.815 Y146.54 E.13857
G1 X176.815 Y146.476 E.00198
M204 S1000
;WIPE_START
G1 F8640
G1 X176.815 Y146.039 E-.10092
G1 X173.961 Y146.039 E-.65908
;WIPE_END
G1 E-.04 F2100
G1 Z.6 F720
G1 X175.87 Y65.448 F10800
G1 Z.2 F720
G1 E.8 F2100
M204 S800
;TYPE:External perimeter
G1 F1200
G1 X176.498 Y64.642 E.03204
G1 X176.783 Y64.368 E.01238
G1 X177.124 Y64.101 E.01359
G1 X178.251 Y63.667 E.03785
G1 X179.447 Y63.54 E.03774
G1 X180.637 Y63.723 E.03773
G1 X181.74 Y64.205 E.03774
G1 X182.683 Y64.957 E.03785
G1 X183.359 Y65.94 E.0374
G1 X183.849 Y67.028 E.03741
G1 X184.001 Y68.226 E.03785
G1 X183.84 Y69.418 E.03773
G1 X183.379 Y70.53 E.03773
G1 X182.648 Y71.486 E.03773
G1 X181.698 Y72.224 E.03773
G1 X180.59 Y72.694 E.03773
G1 X179.399 Y72.865 E.03773
G1 X178.204 Y72.726 E.03773
G1 X177.085 Y72.285 E.03773
G1 X176.115 Y71.573 E.03774
G1 X175.36 Y70.631 E.03785
G1 X175.2 Y70.228 E.01359
G1 X175.091 Y69.848 E.01238
G1 X174.955 Y68.835 E.03204
G1 X174.327 Y69.642 E.03204
G1 X174.042 Y69.915 E.01238
G1 X173.701 Y70.182 E.01359
G1 X172.575 Y70.616 E.03785
G1 X171.378 Y70.743 E.03774
G1 X170.189 Y70.56 E.03773
G1 X169.086 Y70.079 E.03773
G1 X168.143 Y69.331 E.03773
G1 X167.423 Y68.367 E.03773
G1 X166.973 Y67.251 E.03773
G1 X166.824 Y66.057 E.03773
G1 X166.986 Y64.865 E.03773
G1 X167.447 Y63.753 E.03773
G1 X168.181 Y62.795 E.03786
G1 X169.153 Y62.105 E.03737
G1 X170.233 Y61.593 E.03747
G1 X171.426 Y61.418 E.0378
G1 X172.621 Y61.558 E.03773
G1 X173.74 Y61.998 E.03773
G1 X174.71 Y62.711 E.03774
G1 X175.465 Y63.653 E.03785
G1 X175.625 Y64.055 E.01359
G1 X175.734 Y64.435 E.01238
G1 X175.862 Y65.389 E.03016
M204 S1000
G1 X176.02 Y65.077 F10800
G1 X176.124 Y64.508
M204 S800
;TYPE:Perimeter
G1 F1200
G1 X176.104 Y64.358 E.00477
G1 X175.982 Y63.934 E.01383
G1 X175.795 Y63.461 E.01594
G1 X174.974 Y62.436 E.04118
G1 X173.924 Y61.665 E.04083
G1 X172.713 Y61.189 E.0408
G1 X171.421 Y61.038 E.0408
G1 X171.007 Y61.098 E.0131
G1 X178.155 Y56.984 E.25858
G1 X182.271 Y64.147 E.25904
G1 X181.936 Y63.879 E.01346
G1 X180.742 Y63.358 E.04083
G1 X179.456 Y63.16 E.0408
G1 X178.161 Y63.297 E.04083
G1 X176.936 Y63.77 E.04118
G1 X176.536 Y64.083 E.01594
G1 X176.161 Y64.461 E.01669
M204 S1000
;WIPE_START
G1 F8640
G1 X176.104 Y64.358 E-.02727
G1 X175.982 Y63.934 E-.10183
G1 X175.795 Y63.461 E-.11742
G1 X174.974 Y62.436 E-.30323
G1 X174.24 Y61.897 E-.21024
;WIPE_END
G1 E-.04 F2100
G1 Z.6 F720
G1 X187.395 Y140.342 F10800
G1 Z.2 F720
G1 E.8 F2100
M204 S800
;TYPE:External perimeter
G1 F1200
G1 X187.782 Y141.288 E.03204
G1 X187.877 Y141.671 E.01238
G1 X187.939 Y142.1 E.01359
G1 X187.754 Y143.293 E.03785
G1 X187.268 Y144.394 E.03774
G1 X186.517 Y145.334 E.03773
G1 X185.55 Y146.05 E.03774
G1 X184.427 Y146.494 E.03785
G1 X183.238 Y146.59 E.0374
G1 X182.05 Y146.473 E.03741
G1 X180.936 Y146.008 E.03786
G1 X179.983 Y145.274 E.03773
G1 X179.249 Y144.321 E.03773
G1 X178.783 Y143.211 E.03773
G1 X178.617 Y142.019 E.03773
G1 X178.761 Y140.825 E.03773
G1 X179.206 Y139.707 E.03773
G1 X179.923 Y138.74 E.03773
G1 X180.863 Y137.989 E.03773
G1 X181.964 Y137.503 E.03774
G1 X183.157 Y137.318 E.03785
G1 X183.586 Y137.38 E.01359
G1 X183.969 Y137.475 E.01238
G1 X184.915 Y137.861 E.03204
G1 X184.529 Y136.915 E.03204
G1 X184.433 Y136.532 E.01238
G1 X184.372 Y136.103 E.01359
G1 X184.556 Y134.91 E.03785
G1 X185.042 Y133.809 E.03774
G1 X185.794 Y132.869 E.03773
G1 X186.76 Y132.153 E.03773
G1 X187.878 Y131.707 E.03773
G1 X189.073 Y131.563 E.03773
G1 X190.265 Y131.729 E.03773
G1 X191.374 Y132.195 E.03773
G1 X192.328 Y132.929 E.03773
G1 X193.062 Y133.883 E.03773
G1 X193.527 Y134.997 E.03786
G1 X193.644 Y136.184 E.03741
G1 X193.548 Y137.373 E.0374
M73 P0 R112
G1 X193.104 Y138.496 E.03785
G1 X192.388 Y139.463 E.03774
G1 X191.448 Y140.214 E.03773
G1 X190.347 Y140.7 E.03774
G1 X189.154 Y140.885 E.03785
G1 X188.725 Y140.823 E.01359
G1 X188.342 Y140.728 E.01238
G1 X187.451 Y140.364 E.03016
M204 S1000
G1 X187.643 Y140.656 F10800
G1 X188.084 Y141.03
M204 S800
;TYPE:Perimeter
G1 F1200
G1 X188.224 Y141.087 E.00476
G1 X188.652 Y141.194 E.01383
G1 X189.156 Y141.266 E.01595
G1 X190.453 Y141.065 E.04118
G1 X191.645 Y140.539 E.04083
G1 X192.661 Y139.727 E.0408
G1 X193.437 Y138.681 E.04083
G1 X193.594 Y138.283 E.0134
G1 X193.593 Y146.539 E.25887
G1 X185.337 Y146.54 E.25887
G1 X185.734 Y146.383 E.0134
M73 P1 R112
G1 X186.781 Y145.608 E.04083
G1 X187.593 Y144.591 E.0408
G1 X188.119 Y143.4 E.04083
G1 X188.32 Y142.102 E.04118
G1 X188.247 Y141.599 E.01595
M73 Q1 S115
G1 X188.106 Y141.086 E.01668
M204 S1000
;WIPE_START
G1 F8640
G1 X188.224 Y141.087 E-.0272
G1 X188.652 Y141.194 E-.10183
G1 X189.156 Y141.266 E-.11743
G1 X190.453 Y141.065 E-.30325
G1 X191.287 Y140.698 E-.21028
;WIPE_END
G1 E-.04 F2100
G1 Z.6 F720
G1 X61.679 Y142.027 F10800
G1 Z.2 F720
G1 E.8 F2100
M204 S800
G1 F1200
G1 X61.854 Y143.313 E.04069
G1 X62.346 Y144.495 E.04016
G1 X63.119 Y145.516 E.04016
G1 X64.125 Y146.31 E.04017
G1 X64.671 Y146.548 E.01868
G1 X56.407 Y146.547 E.25913
G1 X56.406 Y139.177 E.2311
G1 X57.08 Y140.245 E.03959
G1 X58.014 Y141.122 E.04016
G1 X59.138 Y141.735 E.04016
G1 X60.381 Y142.044 E.04016
G1 X61.619 Y142.032 E.03883
M204 S1000
;WIPE_START
G1 F8640
G1 X61.854 Y143.313 E-.3007
G1 X62.346 Y144.495 E-.29574
G1 X62.774 Y145.06 E-.16356
;WIPE_END
G1 E-.04 F2100
G1 Z.6 F720
G1 X65.572 Y137.503 F10800
G1 Z.2 F720
G1 E.8 F2100
M204 S800
;TYPE:External perimeter
G1 F1200
G1 X66.08 Y137.365 E.0165
G1 X67.264 Y137.353 E.03713
G1 X68.413 Y137.64 E.03713
G1 X69.453 Y138.206 E.03713
G1 X70.317 Y139.017 E.03713
G1 X70.948 Y140.018 E.03713
G1 X71.307 Y141.147 E.03713
G1 X71.37 Y142.33 E.03713
G1 X71.133 Y143.49 E.03713
G1 X70.612 Y144.553 E.03713
G1 X69.839 Y145.451 E.03713
G1 X68.865 Y146.125 E.03715
G1 X67.748 Y146.528 E.03724
G1 X66.577 Y146.597 E.03679
G1 X65.41 Y146.459 E.03683
G1 X64.321 Y145.983 E.03726
G1 X63.391 Y145.25 E.03714
G1 X62.675 Y144.306 E.03713
G1 X62.221 Y143.212 E.03713
G1 X62.057 Y142.04 E.03713
G1 X62.117 Y141.517 E.0165
G1 X61.61 Y141.655 E.0165
G1 X60.425 Y141.667 E.03713
G1 X59.276 Y141.38 E.03713
G1 X58.236 Y140.814 E.03713
G1 X57.373 Y140.003 E.03713
G1 X56.741 Y139 E.03717
G1 X56.395 Y137.866 E.03716
G1 X56.363 Y136.695 E.03675
G1 X56.555 Y135.534 E.03689
G1 X57.078 Y134.467 E.03725
G1 X57.85 Y133.569 E.03714
G1 X58.824 Y132.895 E.03713
G1 X59.936 Y132.488 E.03713
G1 X61.115 Y132.374 E.03713
G1 X62.284 Y132.561 E.03713
G1 X63.369 Y133.037 E.03713
G1 X64.299 Y133.77 E.03713
G1 X65.014 Y134.714 E.03713
G1 X65.469 Y135.807 E.03713
G1 X65.633 Y136.98 E.03713
G1 X65.579 Y137.443 E.01462
M204 S1000
G1 X65.873 Y137.239 F10800
;WIPE_START
G1 F8640
G1 X66.08 Y137.365 E-.11708
G1 X67.264 Y137.353 E-.27345
G1 X68.413 Y137.64 E-.27345
G1 X68.779 Y137.838 E-.09602
;WIPE_END
G1 E-.04 F2100
G1 Z.6 F720
G1 X61.916 Y92.377 F10800
G1 Z.2 F720
G1 E.8 F2100
M204 S800
;TYPE:Perimeter
