;START_OF_HEADER
;HEADER_VERSION:0.1
;FLAVOR:Griffin
;GENERATOR.NAME:Cura_SteamEngine
;GENERATOR.VERSION:4.8.0
;GENERATOR.BUILD_DATE:2020-11-10
;TARGET_MACHINE.NAME:Ultimaker 3
;EXTRUDER_TRAIN.0.INITIAL_TEMPERATURE:205
;EXTRUDER_TRAIN.0.MATERIAL.VOLUME_USED:74
;EXTRUDER_TRAIN.0.MATERIAL.GUID:506c9f0d-e3aa-4bd4-b2d2-23e2425b1aa9
;EXTRUDER_TRAIN.0.NOZZLE.DIAMETER:0.4
;EXTRUDER_TRAIN.0.NOZZLE.NAME:AA 0.4
;BUILD_PLATE.TYPE:glass
;BUILD_PLATE.INITIAL_TEMPERATURE:60
;PRINT.TIME:85
;PRINT.GROUPS:1
;PRINT.SIZE.MIN.X:9
;PRINT.SIZE.MIN.Y:6
;PRINT.SIZE.MIN.Z:0.27
;PRINT.SIZE.MAX.X:123.015
;PRINT.SIZE.MAX.Y:113.97
;PRINT.SIZE.MAX.Z:2.27
;END_OF_HEADER
;Generated with Cura_SteamEngine 4.8.0
T0
M82 ;absolute extrusion mode

G92 E0
M109 S205
G0 F15000 X9 Y6 Z2
G280
G1 F1500 E-6.5
;LAYER_COUNT:8
;LAYER:0
M107
M204 S625
M205 X6 Y6
G1 F600 Z2.27
G0 F4285.7 X110.421 Y101.553 Z2.27
M204 S500
M205 X5 Y5
;TYPE:SKIRT
G1 F600 Z0.27
G1 F1500 E0
G1 F1200 X110.671 Y101.318 E0.0061
G1 X110.968 Y101.148 E0.01218
G1 X111.296 Y101.051 E0.01826
G1 X111.545 Y101.03 E0.0227
G1 X121.545 Y101.03 E0.20046
G1 X121.885 Y101.07 E0.20655
G1 X122.207 Y101.187 E0.21264
G1 X122.492 Y101.376 E0.21872
G1 X122.727 Y101.626 E0.22482
G1 X122.897 Y101.923 E0.2309
G1 X122.994 Y102.251 E0.23698
G1 X123.015 Y102.5 E0.24142
G1 X123.015 Y112.5 E0.41918
G1 X122.975 Y112.84 E0.42527
G1 X122.858 Y113.162 E0.43136
G1 X122.669 Y113.447 E0.43744
G1 X122.419 Y113.682 E0.44354
G1 X122.122 Y113.852 E0.44962
G1 X121.794 Y113.949 E0.4557
G1 X121.545 Y113.97 E0.46014
G1 X111.545 Y113.97 E0.6379
G1 X111.205 Y113.93 E0.64399
G1 X110.883 Y113.813 E0.65008
G1 X110.598 Y113.624 E0.65616
G1 X110.363 Y113.374 E0.66225
G1 X110.193 Y113.077 E0.66834
G1 X110.096 Y112.749 E0.67442
G1 X110.075 Y112.5 E0.67886
G1 X110.075 Y102.5 E0.85662
G1 X110.115 Y102.16 E0.86271
G1 X110.232 Y101.838 E0.8688
G1 X110.421 Y101.553 E0.87487
M204 S625
M205 X6 Y6
G0 F4285.7 X110.835 Y101.726
M204 S500
M205 X5 Y5
G1 F1200 X111.073 Y101.562 E0.88001
G1 X111.347 Y101.469 E0.88516
G1 X111.545 Y101.45 E0.88869
G1 X121.545 Y101.45 E1.06645
G1 X121.831 Y101.49 E1.07158
G1 X122.096 Y101.606 E1.07673
G1 X122.319 Y101.79 E1.08187
G1 X122.483 Y102.028 E1.087
G1 X122.576 Y102.302 E1.09215
G1 X122.595 Y102.5 E1.09568
G1 X122.595 Y112.5 E1.27344
G1 X122.555 Y112.786 E1.27858
G1 X122.439 Y113.051 E1.28372
G1 X122.255 Y113.274 E1.28886
G1 X122.017 Y113.438 E1.294
G1 X121.743 Y113.531 E1.29914
G1 X121.545 Y113.55 E1.30267
G1 X111.545 Y113.55 E1.48043
G1 X111.259 Y113.51 E1.48557
G1 X110.994 Y113.394 E1.49071
G1 X110.771 Y113.21 E1.49585
G1 X110.607 Y112.972 E1.50099
G1 X110.514 Y112.698 E1.50613
G1 X110.495 Y112.5 E1.50967
G1 X110.495 Y102.5 E1.68743
G1 X110.535 Y102.214 E1.69256
G1 X110.651 Y101.949 E1.6977
G1 X110.835 Y101.726 E1.70284
M204 S625
M205 X6 Y6
G0 F4285.7 X111.069 Y102.088
M204 S500
M205 X5 Y5
G1 F1200 X111.243 Y101.947 E1.70682
G1 X111.545 Y101.87 E1.71236
G1 X121.545 Y101.87 E1.89012
G1 X121.765 Y101.91 E1.8941
G1 X121.957 Y102.024 E1.89807
G1 X122.098 Y102.198 E1.90205
G1 X122.175 Y102.5 E1.90759
G1 X122.175 Y112.5 E2.08535
G1 X122.135 Y112.72 E2.08932
G1 X122.021 Y112.912 E2.09329
G1 X121.847 Y113.053 E2.09727
G1 X121.545 Y113.13 E2.10281
G1 X111.545 Y113.13 E2.28057
G1 X111.325 Y113.09 E2.28455
G1 X111.133 Y112.976 E2.28852
G1 X110.992 Y112.802 E2.2925
G1 X110.915 Y112.5 E2.29804
G1 X110.915 Y102.5 E2.4758
G1 X110.955 Y102.28 E2.47977
G1 X111.069 Y102.088 E2.48374
M204 S625
M205 X6 Y6
G0 F4285.7 X111.374 Y102.378
M204 S500
M205 X5 Y5
G1 F1200 X111.545 Y102.29 E2.48716
G1 X121.545 Y102.29 E2.66492
G1 X121.667 Y102.329 E2.6672
G1 X121.755 Y102.5 E2.67061
G1 X121.755 Y112.5 E2.84837
G1 X121.716 Y112.622 E2.85065
G1 X121.545 Y112.71 E2.85407
G1 X111.545 Y112.71 E3.03183
G1 X111.423 Y112.671 E3.03411
G1 X111.335 Y112.5 E3.03753
G1 X111.335 Y102.5 E3.21528
G1 X111.374 Y102.378 E3.21756
M204 S625
M205 X6 Y6
G0 F4285.7 X114.767 Y105.602
M204 S500
M205 X5 Y5
G1 F1200 X114.505 Y105.888 E3.22446
G1 X114.287 Y106.209 E3.23135
G1 X114.122 Y106.554 E3.23815
G1 X114.009 Y106.924 E3.24503
G1 X113.944 Y107.362 E3.2529
G1 X113.96 Y107.786 E3.26044
G1 X114.033 Y108.172 E3.26743
G1 X114.158 Y108.534 E3.27423
G1 X114.336 Y108.875 E3.28107
G1 X114.567 Y109.188 E3.28799
G1 X114.84 Y109.464 E3.29489
G1 X115.145 Y109.693 E3.30167
G1 X115.486 Y109.876 E3.30855
G1 X115.851 Y110.006 E3.31543
G1 X116.236 Y110.082 E3.32241
G1 X116.613 Y110.1 E3.32912
G1 X117.006 Y110.06 E3.33614
G1 X117.378 Y109.964 E3.34297
G1 X117.729 Y109.816 E3.34974
G1 X118.064 Y109.611 E3.35672
G1 X118.359 Y109.364 E3.36356
G1 X118.613 Y109.076 E3.37039
G1 X118.828 Y108.746 E3.37739
G1 X118.986 Y108.399 E3.38417
G1 X119.09 Y108.034 E3.39091
G1 X119.142 Y107.643 E3.39792
G1 X119.134 Y107.258 E3.40477
G1 X119.069 Y106.876 E3.41166
G1 X118.95 Y106.508 E3.41853
G1 X118.777 Y106.165 E3.42536
G1 X118.557 Y105.853 E3.43215
G1 X118.286 Y105.569 E3.43913
G1 X117.979 Y105.33 E3.44604
G1 X117.649 Y105.146 E3.45276
G1 X117.286 Y105.008 E3.45966
G1 X116.904 Y104.925 E3.46661
G1 X116.521 Y104.899 E3.47343
G1 X116.132 Y104.932 E3.48037
G1 X115.761 Y105.02 E3.48715
G1 X115.4 Y105.164 E3.49406
G1 X115.063 Y105.362 E3.50101
G1 X114.767 Y105.602 E3.50778
M204 S625
M205 X6 Y6
G0 F4285.7 X114.481 Y105.293
M204 S500
M205 X5 Y5
G1 F1200 X114.173 Y105.628 E3.51587
G1 X113.924 Y105.997 E3.52379
G1 X113.727 Y106.407 E3.53187
G1 X113.597 Y106.832 E3.53977
G1 X113.524 Y107.367 E3.54937
G1 X113.541 Y107.832 E3.55764
G1 X113.624 Y108.275 E3.56565
G1 X113.774 Y108.705 E3.57375
G1 X113.979 Y109.098 E3.58163
G1 X114.244 Y109.459 E3.58959
G1 X114.561 Y109.779 E3.59759
G1 X114.923 Y110.05 E3.60563
G1 X115.311 Y110.258 E3.61346
G1 X115.742 Y110.413 E3.6216
G1 X116.182 Y110.5 E3.62957
G1 X116.629 Y110.52 E3.63753
G1 X117.083 Y110.474 E3.64564
G1 X117.508 Y110.364 E3.65344
G1 X117.928 Y110.188 E3.66154
G1 X118.301 Y109.96 E3.66931
G1 X118.656 Y109.662 E3.67755
G1 X118.947 Y109.333 E3.68536
G1 X119.196 Y108.95 E3.69348
G1 X119.38 Y108.547 E3.70135
G1 X119.505 Y108.112 E3.7094
G1 X119.562 Y107.669 E3.71734
G1 X119.554 Y107.22 E3.72532
G1 X119.478 Y106.777 E3.73331
G1 X119.339 Y106.349 E3.74131
G1 X119.137 Y105.947 E3.74931
G1 X118.881 Y105.583 E3.75722
G1 X118.567 Y105.255 E3.76529
G1 X118.217 Y104.983 E3.77317
G1 X117.82 Y104.761 E3.78125
G1 X117.407 Y104.604 E3.78911
G1 X116.967 Y104.508 E3.79711
G1 X116.513 Y104.478 E3.8052
G1 X116.073 Y104.515 E3.81305
G1 X115.63 Y104.62 E3.82114
G1 X115.215 Y104.786 E3.82909
G1 X114.823 Y105.016 E3.83717
G1 X114.481 Y105.293 E3.84499
M204 S625
M205 X6 Y6
G0 F4285.7 X114.191 Y104.987
M204 S500
M205 X5 Y5
G1 F1200 X113.845 Y105.364 E3.85409
G1 X113.558 Y105.788 E3.86319
G1 X113.336 Y106.25 E3.8723
G1 X113.186 Y106.741 E3.88142
G1 X113.108 Y107.262 E3.89079
G1 X113.104 Y107.349 E3.89234
G1 X113.123 Y107.885 E3.90187
G1 X113.217 Y108.384 E3.9109
G1 X113.385 Y108.867 E3.91999
G1 X113.622 Y109.322 E3.92911
G1 X113.927 Y109.736 E3.93825
G1 X114.288 Y110.101 E3.94737
G1 X114.69 Y110.402 E3.9563
G1 X115.147 Y110.646 E3.96551
G1 X115.626 Y110.818 E3.97456
G1 X116.134 Y110.918 E3.98376
G1 X116.639 Y110.942 E3.99275
G1 X117.152 Y110.89 E4.00191
G1 X117.644 Y110.762 E4.01095
G1 X118.12 Y110.563 E4.02012
G1 X118.55 Y110.299 E4.02909
G1 X118.949 Y109.965 E4.03834
G1 X119.282 Y109.588 E4.04728
G1 X119.565 Y109.154 E4.05649
G1 X119.776 Y108.691 E4.06554
G1 X119.916 Y108.201 E4.07459
G1 X119.983 Y107.689 E4.08377
G1 X119.973 Y107.181 E4.09281
G1 X119.887 Y106.674 E4.10195
G1 X119.73 Y106.191 E4.11097
G1 X119.499 Y105.732 E4.12011
G1 X119.204 Y105.314 E4.1292
G1 X118.851 Y104.943 E4.13831
G1 X118.447 Y104.63 E4.14739
G1 X118.005 Y104.382 E4.1564
G1 X117.525 Y104.2 E4.16553
G1 X117.023 Y104.091 E4.17466
G1 X116.512 Y104.057 E4.18376
G1 X116 Y104.1 E4.19289
G1 X115.507 Y104.217 E4.2019
G1 X115.026 Y104.409 E4.21111
G1 X114.583 Y104.669 E4.22024
G1 X114.191 Y104.987 E4.22921
M204 S625
M205 X6 Y6
G0 F4285.7 X113.905 Y104.678
M204 S500
M205 X5 Y5
G1 F1200 X113.514 Y105.104 E4.23949
G1 X113.191 Y105.582 E4.24974
G1 X112.944 Y106.097 E4.2599
G1 X112.777 Y106.643 E4.27005
G1 X112.69 Y107.219 E4.2804
G1 X112.683 Y107.353 E4.28279
G1 X112.705 Y107.932 E4.29309
G1 X112.81 Y108.493 E4.30323
G1 X112.999 Y109.035 E4.31344
G1 X113.265 Y109.546 E4.32368
G1 X113.604 Y110.007 E4.33385
G1 X114.008 Y110.415 E4.34405
G1 X114.468 Y110.759 E4.35427
G1 X114.971 Y111.029 E4.36441
G1 X115.517 Y111.224 E4.37472
G1 X116.08 Y111.336 E4.38492
G1 X116.655 Y111.362 E4.39515
G1 X117.228 Y111.304 E4.40539
G1 X117.776 Y111.162 E4.41546
G1 X118.311 Y110.938 E4.42577
G1 X118.799 Y110.639 E4.43594
G1 X119.242 Y110.267 E4.44622
G1 X119.616 Y109.844 E4.45626
G1 X119.935 Y109.355 E4.46664
G1 X120.171 Y108.838 E4.47674
G1 X120.329 Y108.283 E4.487
G1 X120.404 Y107.715 E4.49718
G1 X120.392 Y107.142 E4.50737
G1 X120.296 Y106.576 E4.51757
G1 X120.119 Y106.029 E4.52779
G1 X119.861 Y105.516 E4.538
G1 X119.528 Y105.045 E4.54826
G1 X119.136 Y104.633 E4.55836
G1 X118.676 Y104.276 E4.56872
G1 X118.183 Y104.001 E4.57875
G1 X117.644 Y103.795 E4.58901
G1 X117.086 Y103.674 E4.59916
G1 X116.505 Y103.636 E4.60951
G1 X115.935 Y103.684 E4.61967
G1 X115.382 Y103.815 E4.62978
G1 X114.841 Y104.031 E4.64013
G1 X114.343 Y104.323 E4.65039
G1 X113.905 Y104.678 E4.66042
M204 S625
M205 X6 Y6
G1 F1500 E-1.83958
;MESH:ead0c779-9d18-4f94-8d53-5aa0119fcba8.stl
G0 F4285.7 X115.843 Y106.751
G0 X117.445 Y107.993
G0 X120.531 Y109.683
G0 X121.025 Y111.98
G0 X121.335 Y112.29
M204 S500
M205 X5 Y5
;TYPE:WALL-OUTER
G1 F1500 E4.66042
G1 F1200 X111.755 Y112.29 E4.83071
G1 X111.755 Y102.71 E5.001
G1 X121.335 Y102.71 E5.1713
G1 X121.335 Y112.29 E5.34159
M204 S625
M205 X6 Y6
G0 F4285.7 X121.135 Y112.29
G0 X120.873 Y111.828
G0 X119.786 Y110.797
G0 X119.533 Y110.572
M204 S500
M205 X5 Y5
G1 F1200 X119.955 Y110.095 E5.35291
G1 X120.302 Y109.561 E5.36423
G1 X120.566 Y108.983 E5.37553
G1 X120.741 Y108.37 E5.38686
G1 X120.824 Y107.739 E5.39817
G1 X120.812 Y107.102 E5.4095
G1 X120.705 Y106.475 E5.42081
G1 X120.508 Y105.869 E5.43213
G1 X120.223 Y105.3 E5.44345
G1 X119.856 Y104.779 E5.45477
G1 X119.416 Y104.319 E5.46609
G1 X118.913 Y103.928 E5.47741
G1 X118.358 Y103.617 E5.48872
G1 X117.763 Y103.391 E5.50004
G1 X117.14 Y103.256 E5.51137
G1 X116.505 Y103.214 E5.52268
G1 X115.871 Y103.268 E5.53399
G1 X115.252 Y103.414 E5.5453
G1 X114.659 Y103.651 E5.55665
G1 X114.11 Y103.973 E5.56796
G1 X113.615 Y104.372 E5.57926
G1 X113.184 Y104.841 E5.59059
G1 X112.827 Y105.368 E5.6019
G1 X112.552 Y105.944 E5.61325
G1 X112.366 Y106.552 E5.62455
G1 X112.272 Y107.176 E5.63577
G1 X112.263 Y107.347 E5.63881
G1 X112.286 Y107.977 E5.65002
G1 X112.404 Y108.603 E5.66134
G1 X112.613 Y109.204 E5.67265
G1 X112.908 Y109.768 E5.68397
G1 X113.285 Y110.282 E5.6953
G1 X113.733 Y110.734 E5.70661
G1 X114.243 Y111.115 E5.71793
G1 X114.804 Y111.416 E5.72924
G1 X115.404 Y111.631 E5.74057
G1 X116.029 Y111.754 E5.7519
G1 X116.665 Y111.783 E5.76321
G1 X117.298 Y111.719 E5.77452
G1 X117.914 Y111.561 E5.78583
G1 X118.501 Y111.313 E5.79715
G1 X119.045 Y110.981 E5.80848
G1 X119.533 Y110.572 E5.8198
M204 S625
M205 X6 Y6
G0 F4285.7 X119.665 Y110.422
G0 X120.011 Y110.729
G0 X120.945 Y111.9
M204 S500
M205 X5 Y5
;TYPE:WALL-INNER
G1 F1200 X118.892 Y111.9 E5.85108
G1 X118.679 Y111.9 E5.85433
G1 X118.115 Y111.9 E5.86292
G1 X118.679 Y111.661 E5.86639
G1 X118.861 Y111.551 E5.86911
G1 X119.273 Y111.299 E5.87646
G1 X119.806 Y110.852 E5.88706
G1 X120.266 Y110.332 E5.89764
G1 X120.592 Y109.832 E5.90674
G1 X120.645 Y109.749 E5.90824
G1 X120.933 Y109.118 E5.91881
G1 X120.945 Y109.076 E5.91947
G1 X120.945 Y109.118 E5.91948
G1 X120.945 Y109.749 E5.92352
G1 X120.945 Y109.848 E5.92491
G1 X120.945 Y111.9 E5.95618
M204 S625
M205 X6 Y6
G0 F4285.7 X120.585 Y111.54
M204 S500
M205 X5 Y5
G1 F1200 X120.039 Y111.54 E5.9645
G1 X119.546 Y111.54 E5.97201
G1 X119.924 Y111.223 E5.97599
G1 X120.058 Y111.111 E5.97866
G1 X120.268 Y110.874 E5.98348
G1 X120.553 Y110.551 E5.99004
G1 X120.585 Y110.502 E5.99094
G1 X120.585 Y110.551
G1 X120.585 Y110.982 E5.99471
G1 X120.585 Y111.54 E6.00321
M204 S625
M205 X6 Y6
G0 F4285.7 X114.999 Y111.9
M204 S500
M205 X5 Y5
G1 F1200 X114.645 Y111.9 E6.0086
G1 X114.183 Y111.9 E6.01564
G1 X112.145 Y111.9 E6.04669
G1 X112.145 Y109.867 E6.07767
G1 X112.145 Y109.359 E6.08541
G1 X112.145 Y109.046 E6.09018
G1 X112.254 Y109.359 E6.09112
G1 X112.489 Y109.809 E6.09624
G1 X112.576 Y109.975 E6.09909
G1 X112.988 Y110.536 E6.1097
G1 X113.476 Y111.029 E6.12027
G1 X114.033 Y111.445 E6.13086
G1 X114.238 Y111.555 E6.1344
G1 X114.645 Y111.773 E6.13923
G1 X114.999 Y111.9 E6.14045
M204 S625
M205 X6 Y6
G0 F4285.7 X113.558 Y111.54
M204 S500
M205 X5 Y5
G1 F1200 X113.239 Y111.54 E6.14531
G1 X113.096 Y111.54 E6.14749
G1 X112.505 Y111.54 E6.1565
G1 X112.505 Y110.952 E6.16545
G1 X112.505 Y110.77 E6.16823
G1 X112.505 Y110.486 E6.17256
G1 X112.714 Y110.77 E6.17465
G1 X112.842 Y110.899 E6.17689
G1 X113.139 Y111.2 E6.18333
G1 X113.239 Y111.301 E6.18516
G1 X113.558 Y111.54 E6.18777
M204 S625
M205 X6 Y6
G0 F4285.7 X112.366 Y108.613
G0 X112.145 Y105.942
M204 S500
M205 X5 Y5
G1 F1200 X112.145 Y105.802 E6.1899
G1 X112.145 Y105.174 E6.19947
G1 X112.145 Y105.148 E6.19986
G1 X112.145 Y103.1 E6.23107
G1 X114.195 Y103.1 E6.2623
G1 X114.487 Y103.1 E6.26675
G1 X114.987 Y103.1 E6.27437
G1 X114.487 Y103.3 E6.27697
G1 X114.235 Y103.447 E6.28046
G1 X113.888 Y103.651 E6.2866
G1 X113.348 Y104.087 E6.29717
G1 X112.877 Y104.598 E6.30776
G1 X112.502 Y105.153 E6.31797
G1 X112.488 Y105.174 E6.31834
G1 X112.188 Y105.802 E6.32439
G1 X112.145 Y105.942 E6.32459
M204 S625
M205 X6 Y6
G0 F4285.7 X113.552 Y103.46
M204 S500
M205 X5 Y5
G1 F1200 X113.157 Y103.779 E6.33233
G1 X113.101 Y103.824 E6.33342
G1 X112.827 Y104.121 E6.33958
G1 X112.594 Y104.374 E6.34482
G1 X112.505 Y104.506 E6.34724
G1 X112.505 Y104.374 E6.3474
M104 S200
G1 X112.505 Y104.029 E6.35082
G1 X112.505 Y103.46 E6.35949
G1 X113.044 Y103.46 E6.3677
G1 X113.045 Y103.46 E6.36772
G1 X113.552 Y103.46 E6.3718
M204 S625
M205 X6 Y6
G0 F4285.7 X116.502 Y102.864
G0 X117.654 Y103.326
G0 X120.585 Y104.512
M204 S500
M205 X5 Y5
G1 F1200 X120.437 Y104.302 E6.37572
G1 X120.256 Y104.112 E6.37971
G1 X119.966 Y103.809 E6.3861
G1 X119.92 Y103.761 E6.38712
G1 X119.533 Y103.46 E6.39459
G1 X119.92 Y103.46 E6.39681
G1 X119.987 Y103.46 E6.39776
G1 X120.585 Y103.46 E6.40687
G1 X120.585 Y104.039 E6.41569
G1 X120.585 Y104.302 E6.41861
G1 X120.585 Y104.512 E6.41912
M204 S625
M205 X6 Y6
G0 F4285.7 X120.945 Y105.951
M204 S500
M205 X5 Y5
G1 F1200 X120.87 Y105.721 E6.4228
G1 X120.602 Y105.184 E6.43195
G1 X120.559 Y105.099 E6.4334
G1 X120.158 Y104.531 E6.44399
G1 X119.678 Y104.029 E6.45457
G1 X119.129 Y103.602 E6.46517
G1 X118.85 Y103.446 E6.47004
G1 X118.523 Y103.263 E6.47575
G1 X118.095 Y103.1 E6.48273
G1 X118.523 Y103.1 E6.48412
G1 X118.898 Y103.1 E6.48833
G1 X120.945 Y103.1 E6.51952
G1 X120.945 Y105.12 E6.55029
G1 X120.945 Y105.721 E6.55593
G1 X120.945 Y105.951 E6.55625
M204 S625
M205 X6 Y6
G0 F4285.7 X121.045 Y106.195
M204 S500
M205 X5 Y5
;TYPE:SKIN
G1 F1200 X120.983 Y106.381 E6.55814
G1 X121.075 Y107.463 E6.56857
G1 X121.018 Y108.644 E6.57993
G1 X120.956 Y108.829 E6.58181
M204 S625
M205 X6 Y6
G0 F4285.7 X120.891 Y108.993
G0 X120.549 Y109.693
G0 X119.727 Y110.773
G0 X118.031 Y111.855
G0 X117.869 Y111.929
M204 S500
M205 X5 Y5
G1 F1200 X117.667 Y111.975 E6.58364
G1 X116.485 Y112.031 E6.59409
G1 X115.402 Y111.937 E6.6037
G1 X115.228 Y112.011 E6.60537
M204 S625
M205 X6 Y6
G0 F4285.7 X115.061 Y111.974
G0 X113.547 Y110.945
G0 X112.748 Y110.021
G0 X112.195 Y108.962
