;START_OF_HEADER
;HEADER_VERSION:0.1
;FLAVOR:Griffin
;GENERATOR.NAME:Cura_SteamEngine
;GENERATOR.VERSION:4.8.0
;GENERATOR.BUILD_DATE:2020-11-10
;TARGET_MACHINE.NAME:Ultimaker 3
;EXTRUDER_TRAIN.0.INITIAL_TEMPERATURE:210
;EXTRUDER_TRAIN.0.MATERIAL.VOLUME_USED:5190
;EXTRUDER_TRAIN.0.MATERIAL.GUID:506c9f0d-e3aa-4bd4-b2d2-23e2425b1aa9
;EXTRUDER_TRAIN.0.NOZZLE.DIAMETER:0.4
;EXTRUDER_TRAIN.0.NOZZLE.NAME:AA 0.4
;BUILD_PLATE.TYPE:glass
;BUILD_PLATE.INITIAL_TEMPERATURE:60
;PRINT.TIME:2622
;PRINT.GROUPS:1
;PRINT.SIZE.MIN.X:9
;PRINT.SIZE.MIN.Y:6
;PRINT.SIZE.MIN.Z:0.27
;PRINT.SIZE.MAX.X:195.355
;PRINT.SIZE.MAX.Y:165.329
;PRINT.SIZE.MAX.Z:3.87
;END_OF_HEADER
;Generated with Cura_SteamEngine 4.8.0
T0
M82 ;absolute extrusion mode

G92 E0
M109 S210
G0 F15000 X9 Y6 Z2
G280
G1 F1500 E-6.5
;LAYER_COUNT:9
;LAYER:0
M107
M204 S625
M205 X6 Y6
G1 F600 Z2.27
G0 F4285.7 X54.595 Y96.335 Z2.27
M204 S500
M205 X5 Y5
;TYPE:SKIRT
G1 F600 Z0.27
G1 F1500 E0
G1 F1200 X54.595 Y140.41 E0.78348
G1 X81.372 Y140.408 E1.25946
G1 X82.115 Y140.448 E1.27269
G1 X82.417 Y140.497 E1.27813
G1 X82.641 Y140.458 E1.28217
G1 X83.47 Y140.408 E1.29693
G1 X86.278 Y140.408 E1.34685
G1 X87.021 Y140.448 E1.36008
G1 X87.756 Y140.567 E1.37331
G1 X88.45 Y140.751 E1.38607
G1 X89.154 Y140.993 E1.39931
G1 X89.828 Y141.308 E1.41253
G1 X90.465 Y141.694 E1.42577
G1 X91.056 Y142.147 E1.43901
G1 X91.498 Y142.559 E1.44975
G1 X91.672 Y142.736 E1.45416
G1 X92.164 Y143.294 E1.46739
G1 X92.594 Y143.901 E1.48061
G1 X92.957 Y144.552 E1.49386
G1 X93.253 Y145.302 E1.50819
G1 X105.895 Y145.303 E1.73291
G1 X106.639 Y145.343 E1.74616
G1 X107.373 Y145.463 E1.75938
G1 X108.399 Y145.771 E1.77842
G1 X108.67 Y145.876 E1.78359
G1 X109.348 Y146.182 E1.79681
G1 X109.99 Y146.559 E1.81005
G1 X110.588 Y147.002 E1.82327
G1 X111.135 Y147.507 E1.83651
G1 X111.235 Y147.62 E1.83919
G1 X120.059 Y147.618 E1.99605
G1 X120.308 Y147.367 E2.00233
G1 X120.866 Y146.875 E2.01555
G1 X121.474 Y146.445 E2.02879
G1 X122.124 Y146.083 E2.04202
G1 X122.938 Y145.748 E2.05766
G1 X123.168 Y145.67 E2.06198
G1 X123.885 Y145.469 E2.07522
G1 X124.619 Y145.346 E2.08845
G1 X125.393 Y145.303 E2.10223
G1 X139.387 Y145.301 E2.35098
G1 X139.758 Y144.9 E2.3607
G1 X140.183 Y144.519 E2.37084
G1 X140.371 Y144.364 E2.37517
G1 X140.969 Y143.922 E2.38839
G1 X141.612 Y143.547 E2.40162
G1 X142.292 Y143.243 E2.41486
G1 X143.223 Y142.958 E2.43217
G1 X143.453 Y142.905 E2.43637
G1 X144.186 Y142.777 E2.44959
G1 X145.009 Y142.728 E2.46425
G1 X147.809 Y142.728 E2.51402
G1 X148.376 Y142.759 E2.52412
G1 X148.465 Y142.747 E2.52571
G1 X148.976 Y142.728 E2.5348
G1 X159.197 Y142.727 E2.71649
G1 X159.419 Y142.502 E2.72211
G1 X159.974 Y142.006 E2.73534
G1 X160.579 Y141.573 E2.74857
G1 X161.228 Y141.207 E2.76181
G1 X162.131 Y140.836 E2.77916
G1 X162.358 Y140.761 E2.78341
G1 X163.076 Y140.566 E2.79664
G1 X163.811 Y140.449 E2.80987
G1 X164.531 Y140.411 E2.82269
G1 X178.494 Y140.408 E3.07089
G1 X178.494 Y86.926 E4.02159
G1 X168.364 Y69.365 E4.38196
G1 X160.046 Y74.171 E4.55273
G1 X159.382 Y74.509 E4.56597
G1 X158.686 Y74.773 E4.57921
G1 X157.966 Y74.961 E4.59243
G1 X157.23 Y75.07 E4.60566
G1 X156.936 Y75.082 E4.61089
G1 X156.63 Y75.302 E4.61759
G1 X155.983 Y75.669 E4.63081
G1 X155.3 Y75.965 E4.64405
G1 X154.589 Y76.186 E4.65728
G1 X153.785 Y76.339 E4.67183
G1 X119.983 Y80.734 E5.27775
G1 X119.14 Y81.89 E5.30318
G1 X118.663 Y82.474 E5.31659
G1 X118.303 Y83.037 E5.32847
G1 X110.8 Y93.325 E5.55481
G1 X110.33 Y93.902 E5.56804
G1 X109.8 Y94.426 E5.58129
G1 X109.218 Y94.889 E5.59451
G1 X108.589 Y95.287 E5.60774
G1 X108.019 Y95.573 E5.61908
G1 X107.655 Y95.735 E5.62616
G1 X106.959 Y96.001 E5.6394
G1 X106.24 Y96.191 E5.65262
G1 X105.504 Y96.302 E5.66586
G1 X104.837 Y96.334 E5.67773
G1 X72.441 Y96.335 E6.2536
G1 X71.698 Y96.295 E6.26682
G1 X71.374 Y96.242 E6.27266
G1 X71.13 Y96.285 E6.27706
G1 X70.301 Y96.335 E6.29183
G1 X54.595 Y96.335 E6.57102
M204 S625
M205 X6 Y6
G0 F4285.7 X54.175 Y95.915
M204 S500
M205 X5 Y5
G1 F1200 X54.175 Y140.83 E7.36942
G1 X81.372 Y140.828 E7.85288
G1 X82.092 Y140.868 E7.8657
G1 X82.413 Y140.922 E7.87148
G1 X82.957 Y140.848 E7.88124
G1 X83.47 Y140.828 E7.89037
G1 X86.278 Y140.828 E7.94028
G1 X86.998 Y140.868 E7.9531
G1 X88.058 Y141.076 E7.9723
G1 X88.336 Y141.155 E7.97744
G1 X89.017 Y141.39 E7.99025
G1 X89.669 Y141.7 E8.00308
G1 X90.283 Y142.079 E8.0159
G1 X90.85 Y142.524 E8.02872
G1 X91.372 Y143.03 E8.04164
G1 X91.849 Y143.572 E8.05447
G1 X92.262 Y144.163 E8.06729
G1 X92.608 Y144.796 E8.08011
G1 X92.953 Y145.681 E8.097
G1 X92.966 Y145.722 E8.09776
G1 X105.895 Y145.723 E8.32759
G1 X106.616 Y145.763 E8.34043
G1 X107.327 Y145.882 E8.35324
G1 X108.247 Y146.163 E8.37034
G1 X108.518 Y146.268 E8.37551
G1 X109.175 Y146.565 E8.38832
G1 X109.795 Y146.934 E8.40115
G1 X110.371 Y147.368 E8.41397
G1 X110.895 Y147.864 E8.42679
G1 X111.049 Y148.04 E8.43095
G1 X120.238 Y148.038 E8.59429
G1 X120.602 Y147.667 E8.60353
G1 X121.144 Y147.19 E8.61637
G1 X121.735 Y146.777 E8.62918
G1 X122.369 Y146.432 E8.64202
G1 X123.073 Y146.146 E8.65552
G1 X123.303 Y146.068 E8.65984
G1 X123.998 Y145.874 E8.67267
G1 X124.71 Y145.759 E8.68549
G1 X125.393 Y145.723 E8.69765
G1 X139.576 Y145.721 E8.94976
G1 X139.619 Y145.664 E8.95103
G1 X140.115 Y145.139 E8.96387
G1 X140.638 Y144.688 E8.97615
G1 X141.219 Y144.261 E8.98896
G1 X141.844 Y143.9 E9.00179
G1 X142.505 Y143.611 E9.01462
G1 X143.317 Y143.367 E9.02969
G1 X143.547 Y143.314 E9.03388
G1 X144.258 Y143.191 E9.04671
G1 X145.009 Y143.148 E9.06008
G1 X147.809 Y143.148 E9.10985
G1 X148.461 Y143.184 E9.12146
G1 X148.976 Y143.148 E9.13064
G1 X159.377 Y143.147 E9.31553
G1 X159.715 Y142.799 E9.32415
G1 X160.254 Y142.32 E9.33697
G1 X160.843 Y141.903 E9.3498
G1 X161.474 Y141.554 E9.36262
G1 X162.263 Y141.235 E9.37774
G1 X162.49 Y141.16 E9.38199
G1 X163.186 Y140.972 E9.39481
G1 X163.899 Y140.862 E9.40763
G1 X164.531 Y140.831 E9.41888
G1 X178.914 Y140.828 E9.67455
G1 X178.914 Y86.813 E10.63472
G1 X168.518 Y68.792 E11.00454
G1 X159.836 Y73.808 E11.18278
G1 X159.192 Y74.134 E11.19561
G1 X158.516 Y74.386 E11.20844
G1 X157.817 Y74.562 E11.22125
G1 X157.102 Y74.66 E11.23408
G1 X156.804 Y74.667 E11.23938
G1 X156.233 Y75.053 E11.25163
G1 X155.595 Y75.389 E11.26445
G1 X154.923 Y75.652 E11.27727
G1 X154.226 Y75.839 E11.2901
G1 X153.73 Y75.923 E11.29905
G1 X119.75 Y80.341 E11.90816
G1 X118.801 Y81.642 E11.93678
G1 X118.344 Y82.2 E11.9496
G1 X118.331 Y82.213 E11.94993
G1 X117.964 Y82.79 E11.96209
G1 X110.461 Y93.078 E12.18843
G1 X110.004 Y93.636 E12.20125
G1 X109.488 Y94.141 E12.21409
G1 X108.92 Y94.585 E12.2269
G1 X108.306 Y94.964 E12.23973
G1 X107.848 Y95.19 E12.24881
G1 X107.484 Y95.352 E12.25589
G1 X106.81 Y95.608 E12.26871
G1 X106.111 Y95.788 E12.28154
G1 X105.397 Y95.89 E12.29436
G1 X104.837 Y95.914 E12.30432
G1 X72.441 Y95.915 E12.88019
G1 X71.721 Y95.875 E12.89301
G1 X71.381 Y95.818 E12.89914
G1 X70.814 Y95.895 E12.90931
G1 X70.301 Y95.915 E12.91844
G1 X54.175 Y95.915 E13.20509
M204 S625
M205 X6 Y6
G0 F4285.7 X53.755 Y95.495
M204 S500
M205 X5 Y5
G1 F1200 X53.755 Y141.25 E14.01843
G1 X81.372 Y141.248 E14.50935
G1 X82.068 Y141.288 E14.52174
G1 X82.413 Y141.348 E14.52797
G1 X82.569 Y141.315 E14.5308
G1 X83.47 Y141.248 E14.54686
G1 X86.278 Y141.248 E14.59678
G1 X86.975 Y141.288 E14.60919
G1 X87.943 Y141.48 E14.62673
G1 X88.221 Y141.559 E14.63187
G1 X88.88 Y141.788 E14.64427
G1 X89.508 Y142.091 E14.65666
G1 X90.098 Y142.463 E14.66906
G1 X90.642 Y142.901 E14.68148
G1 X91.073 Y143.325 E14.69223
G1 X91.533 Y143.849 E14.70462
G1 X91.93 Y144.423 E14.71703
G1 X92.258 Y145.039 E14.72943
G1 X92.551 Y145.805 E14.74401
G1 X92.649 Y146.142 E14.75025
G1 X105.895 Y146.143 E14.98571
G1 X106.592 Y146.183 E14.99812
G1 X107.279 Y146.302 E15.01051
G1 X108.095 Y146.554 E15.02569
G1 X108.366 Y146.659 E15.03086
G1 X109.001 Y146.948 E15.04326
G1 X109.599 Y147.308 E15.05567
G1 X110.152 Y147.734 E15.06808
G1 X110.652 Y148.22 E15.08047
G1 X110.86 Y148.46 E15.08612
G1 X120.447 Y148.458 E15.25654
G1 X120.896 Y147.966 E15.26838
G1 X121.421 Y147.507 E15.28077
G1 X121.995 Y147.11 E15.29318
G1 X122.611 Y146.782 E15.30559
G1 X123.208 Y146.544 E15.31701
G1 X123.438 Y146.466 E15.32133
G1 X124.111 Y146.28 E15.33374
G1 X124.8 Y146.172 E15.34614
G1 X125.393 Y146.143 E15.35669
G1 X139.785 Y146.141 E15.61252
G1 X139.985 Y145.882 E15.61834
G1 X140.717 Y145.167 E15.63653
G1 X140.905 Y145.012 E15.64086
G1 X141.468 Y144.6 E15.65326
G1 X142.074 Y144.255 E15.66566
G1 X142.716 Y143.981 E15.67806
G1 X143.411 Y143.777 E15.69094
G1 X143.641 Y143.724 E15.69514
G1 X144.329 Y143.606 E15.70754
G1 X145.009 Y143.568 E15.71965
G1 X147.809 Y143.568 E15.76942
G1 X148.37 Y143.6 E15.77941
G1 X148.397 Y143.596 E15.7799
G1 X148.976 Y143.568 E15.7902
G1 X159.585 Y143.567 E15.97879
G1 X160.011 Y143.097 E15.99006
G1 X160.533 Y142.634 E16.00247
G1 X161.105 Y142.234 E16.01487
G1 X161.719 Y141.902 E16.02728
G1 X162.394 Y141.633 E16.0402
G1 X162.621 Y141.558 E16.04445
G1 X163.295 Y141.378 E16.05685
G1 X163.986 Y141.276 E16.06926
G1 X164.531 Y141.251 E16.07896
G1 X179.334 Y141.248 E16.3421
G1 X179.334 Y86.7 E17.31174
G1 X168.672 Y68.217 E17.69104
G1 X159.626 Y73.444 E17.87676
G1 X159.003 Y73.758 E17.88916
G1 X158.348 Y73.999 E17.90157
G1 X157.669 Y74.163 E17.91398
G1 X156.977 Y74.248 E17.92638
G1 X156.644 Y74.251 E17.9323
G1 X156.429 Y74.424 E17.9372
G1 X155.839 Y74.796 E17.9496
G1 X155.21 Y75.098 E17.962
G1 X154.551 Y75.326 E17.9744
G1 X153.676 Y75.506 E17.99028
G1 X119.518 Y79.947 E18.60258
G1 X118.462 Y81.395 E18.63444
G1 X118.019 Y81.934 E18.64684
G1 X117.906 Y82.121 E18.65073
G1 X117.624 Y82.542 E18.65973
G1 X110.121 Y92.83 E18.88608
G1 X109.679 Y93.37 E18.89848
G1 X109.177 Y93.855 E18.91089
G1 X108.624 Y94.279 E18.92328
G1 X108.025 Y94.638 E18.93569
G1 X107.313 Y94.968 E18.94964
G1 X106.661 Y95.215 E18.96204
G1 X105.984 Y95.385 E18.97444
G1 X105.292 Y95.477 E18.98685
G1 X104.837 Y95.494 E18.99495
G1 X72.441 Y95.495 E19.57082
G1 X71.745 Y95.455 E19.58321
G1 X71.377 Y95.391 E19.58985
G1 X71.202 Y95.428 E19.59303
G1 X70.301 Y95.495 E19.60909
G1 X53.755 Y95.495 E19.90321
M204 S625
M205 X6 Y6
G0 F4285.7 X53.335 Y95.075
M204 S500
M205 X5 Y5
G1 F1200 X53.335 Y141.67 E20.73148
G1 X81.372 Y141.668 E21.22987
G1 X82.044 Y141.708 E21.24183
G1 X82.416 Y141.775 E21.24855
G1 X82.89 Y141.698 E21.25709
G1 X83.47 Y141.668 E21.26741
G1 X86.278 Y141.668 E21.31733
G1 X86.95 Y141.708 E21.3293
G1 X87.828 Y141.884 E21.34521
G1 X88.106 Y141.963 E21.35035
G1 X88.741 Y142.185 E21.36231
G1 X89.346 Y142.481 E21.37428
G1 X89.911 Y142.846 E21.38624
G1 X90.599 Y143.442 E21.40242
G1 X90.773 Y143.619 E21.40683
G1 X91.216 Y144.126 E21.4188
G1 X91.595 Y144.682 E21.43076
G1 X91.906 Y145.28 E21.44274
G1 X92.15 Y145.928 E21.45505
G1 X92.32 Y146.562 E21.46672
G1 X105.895 Y146.563 E21.70803
G1 X106.567 Y146.603 E21.71999
G1 X107.23 Y146.722 E21.73197
G1 X107.943 Y146.946 E21.74525
G1 X108.214 Y147.051 E21.75042
G1 X108.827 Y147.331 E21.7624
G1 X109.401 Y147.682 E21.77436
G1 X109.93 Y148.098 E21.78632
G1 X110.562 Y148.756 E21.80254
G1 X110.663 Y148.88 E21.80538
G1 X120.635 Y148.878 E21.98264
G1 X121.022 Y148.432 E21.99314
G1 X121.191 Y148.266 E21.99735
G1 X121.698 Y147.824 E22.00931
G1 X122.254 Y147.444 E22.02128
G1 X122.852 Y147.134 E22.03325
G1 X123.343 Y146.941 E22.04263
G1 X123.573 Y146.863 E22.04695
G1 X124.222 Y146.685 E22.05891
G1 X124.888 Y146.586 E22.07088
G1 X125.393 Y146.563 E22.07987
G1 X139.989 Y146.561 E22.33932
G1 X140.349 Y146.104 E22.34967
G1 X140.984 Y145.491 E22.36535
G1 X141.172 Y145.336 E22.36969
G1 X141.716 Y144.94 E22.38165
G1 X142.303 Y144.61 E22.39362
G1 X142.925 Y144.353 E22.40558
G1 X143.506 Y144.186 E22.41633
G1 X143.736 Y144.133 E22.42052
G1 X144.4 Y144.021 E22.43249
G1 X145.009 Y143.988 E22.44333
G1 X147.809 Y143.988 E22.49311
G1 X148.484 Y144.028 E22.50513
G1 X148.976 Y143.988 E22.5139
G1 X159.773 Y143.987 E22.70583
G1 X160.134 Y143.567 E22.71567
G1 X160.307 Y143.395 E22.72001
G1 X160.812 Y142.95 E22.73197
G1 X161.366 Y142.567 E22.74395
G1 X161.961 Y142.253 E22.7559
G1 X162.526 Y142.032 E22.76669
G1 X162.753 Y141.957 E22.77094
G1 X163.404 Y141.784 E22.78291
G1 X164.07 Y141.69 E22.79487
G1 X164.531 Y141.671 E22.80307
G1 X179.754 Y141.668 E23.07367
G1 X179.754 Y86.587 E24.05279
G1 X168.826 Y67.643 E24.44155
G1 X159.416 Y73.08 E24.63474
G1 X158.814 Y73.382 E24.64671
G1 X158.18 Y73.61 E24.65869
G1 X157.524 Y73.762 E24.67066
G1 X156.855 Y73.834 E24.68262
G1 X156.506 Y73.83 E24.68882
G1 X156.03 Y74.189 E24.69942
G1 X155.448 Y74.528 E24.71139
G1 X154.83 Y74.795 E24.72336
G1 X154.185 Y74.987 E24.73532
G1 X153.622 Y75.09 E24.7455
G1 X119.284 Y79.555 E25.36103
G1 X118.122 Y81.147 E25.39606
G1 X117.694 Y81.666 E25.40802
G1 X117.646 Y81.712 E25.4092
G1 X117.285 Y82.295 E25.42139
G1 X109.782 Y92.583 E25.64774
G1 X109.354 Y93.102 E25.6597
G1 X108.867 Y93.567 E25.67167
G1 X108.329 Y93.971 E25.68363
G1 X107.506 Y94.422 E25.70031
G1 X107.142 Y94.584 E25.70739
G1 X106.512 Y94.821 E25.71936
G1 X105.858 Y94.981 E25.73133
G1 X105.19 Y95.063 E25.74329
G1 X104.837 Y95.074 E25.74957
G1 X72.441 Y95.075 E26.32544
G1 X71.769 Y95.035 E26.3374
G1 X71.377 Y94.964 E26.34449
G1 X70.881 Y95.045 E26.35342
G1 X70.301 Y95.075 E26.36374
G1 X53.335 Y95.075 E26.66533
M204 S625
M205 X6 Y6
G0 F4285.7 X52.915 Y94.655
M204 S500
M205 X5 Y5
G1 F1200 X52.915 Y142.09 E27.50853
G1 X81.372 Y142.088 E28.01438
G1 X82.018 Y142.128 E28.02589
G1 X82.415 Y142.202 E28.03307
G1 X82.557 Y142.168 E28.03566
G1 X83.47 Y142.088 E28.05196
G1 X86.278 Y142.088 E28.10187
G1 X86.925 Y142.128 E28.11339
G1 X87.713 Y142.288 E28.12769
G1 X87.991 Y142.367 E28.13282
G1 X88.602 Y142.582 E28.14434
G1 X89.182 Y142.871 E28.15586
G1 X89.722 Y143.229 E28.16737
G1 X90.3 Y143.737 E28.18105
G1 X90.474 Y143.914 E28.18546
G1 X90.899 Y144.403 E28.19698
G1 X91.26 Y144.94 E28.20848
G1 X91.552 Y145.518 E28.21999
G1 X91.748 Y146.051 E28.23009
G1 X91.823 Y146.295 E28.23463
G1 X91.975 Y146.925 E28.24615
G1 X91.98 Y146.982 E28.24716
G1 X105.895 Y146.983 E28.49452
G1 X106.542 Y147.023 E28.50604
G1 X107.178 Y147.142 E28.51754
G1 X107.792 Y147.338 E28.529
G1 X108.063 Y147.443 E28.53417
G1 X108.651 Y147.713 E28.54567
G1 X109.202 Y148.055 E28.55719
G1 X109.706 Y148.461 E28.5687
G1 X110.236 Y149.022 E28.58242
G1 X110.453 Y149.3 E28.58869
G1 X120.817 Y149.298 E28.77292
G1 X121.316 Y148.732 E28.78633
G1 X121.485 Y148.566 E28.79054
G1 X121.974 Y148.141 E28.80206
G1 X122.512 Y147.78 E28.81357
G1 X123.09 Y147.488 E28.82509
G1 X123.708 Y147.261 E28.83679
G1 X124.333 Y147.091 E28.8483
G1 X124.974 Y147 E28.85981
G1 X125.393 Y146.983 E28.86727
G1 X140.214 Y146.981 E29.13072
G1 X140.306 Y146.832 E29.13384
G1 X140.712 Y146.328 E29.14534
G1 X141.251 Y145.815 E29.15857
G1 X141.439 Y145.66 E29.1629
G1 X141.964 Y145.28 E29.17442
G1 X142.531 Y144.967 E29.18593
G1 X143.132 Y144.726 E29.19744
G1 X143.83 Y144.542 E29.21027
G1 X144.469 Y144.436 E29.22179
G1 X145.009 Y144.408 E29.2314
G1 X147.809 Y144.408 E29.28117
G1 X148.375 Y144.443 E29.29125
G1 X148.976 Y144.408 E29.30195
G1 X159.958 Y144.406 E29.49717
G1 X160.43 Y143.865 E29.50993
G1 X160.603 Y143.693 E29.51427
G1 X161.09 Y143.265 E29.52579
G1 X161.626 Y142.901 E29.53731
G1 X162.202 Y142.606 E29.54882
G1 X162.885 Y142.356 E29.56174
G1 X163.511 Y142.191 E29.57325
G1 X164.153 Y142.105 E29.58477
G1 X164.531 Y142.091 E29.59149
G1 X180.174 Y142.088 E29.86956
G1 X180.174 Y86.476 E30.85812
G1 X168.979 Y67.07 E31.25636
G1 X159.205 Y72.717 E31.45702
G1 X158.626 Y73.006 E31.46852
G1 X158.015 Y73.221 E31.48004
G1 X157.382 Y73.359 E31.49155
G1 X156.737 Y73.419 E31.50307
G1 X156.347 Y73.406 E31.51
G1 X156.163 Y73.573 E31.51442
G1 X155.632 Y73.945 E31.52595
G1 X155.06 Y74.248 E31.53745
G1 X154.454 Y74.479 E31.54898
G1 X153.568 Y74.673 E31.5651
G1 X119.051 Y79.161 E32.18384
G1 X117.783 Y80.899 E32.22208
G1 X117.37 Y81.398 E32.2336
G1 X117.235 Y81.605 E32.23799
G1 X116.946 Y82.048 E32.24739
G1 X109.443 Y92.336 E32.47374
G1 X109.03 Y92.834 E32.48524
G1 X108.558 Y93.278 E32.49676
G1 X108.035 Y93.661 E32.50828
G1 X107.336 Y94.038 E32.5224
G1 X106.972 Y94.2 E32.52948
G1 X106.365 Y94.427 E32.541
G1 X105.735 Y94.577 E32.55252
G1 X104.837 Y94.654 E32.56854
G1 X72.441 Y94.655 E33.14441
