;START_OF_HEADER
;HEADER_VERSION:0.1
;FLAVOR:Griffin
;GENERATOR.NAME:Cura_SteamEngine
;GENERATOR.VERSION:4.8.0
;GENERATOR.BUILD_DATE:2020-11-10
;TARGET_MACHINE.NAME:Ultimaker 3
;EXTRUDER_TRAIN.0.INITIAL_TEMPERATURE:205
;EXTRUDER_TRAIN.0.MATERIAL.VOLUME_USED:428
;EXTRUDER_TRAIN.0.MATERIAL.GUID:506c9f0d-e3aa-4bd4-b2d2-23e2425b1aa9
;EXTRUDER_TRAIN.0.NOZZLE.DIAMETER:0.4
;EXTRUDER_TRAIN.0.NOZZLE.NAME:AA 0.4
;BUILD_PLATE.TYPE:glass
;BUILD_PLATE.INITIAL_TEMPERATURE:60
;PRINT.TIME:544
;PRINT.GROUPS:1
;PRINT.SIZE.MIN.X:9
;PRINT.SIZE.MIN.Y:6
;PRINT.SIZE.MIN.Z:0.27
;PRINT.SIZE.MAX.X:123.855
;PRINT.SIZE.MAX.Y:114.81
;PRINT.SIZE.MAX.Z:5.97
;END_OF_HEADER
;Generated with Cura_SteamEngine 4.8.0
T0
M82 ;absolute extrusion mode

G92 E0
M109 S205
G0 F15000 X9 Y6 Z2
G280
G1 F1500 E-6.5
;LAYER_COUNT:58
;LAYER:0
M107
M204 S625
M205 X6 Y6
G1 F600 Z2.27
G0 F4285.7 X109.846 Y100.934 Z2.27
M204 S500
M205 X5 Y5
;TYPE:SKIRT
G1 F600 Z0.27
G1 F1500 E0
G1 F1200 X110.166 Y100.647 E0.00764
G1 X110.532 Y100.424 E0.01526
G1 X110.934 Y100.272 E0.0229
G1 X111.545 Y100.19 E0.03386
G1 X121.545 Y100.19 E0.21162
G1 X121.973 Y100.23 E0.21926
G1 X122.385 Y100.348 E0.22688
G1 X122.769 Y100.541 E0.23452
G1 X123.111 Y100.801 E0.24215
G1 X123.398 Y101.121 E0.24979
G1 X123.621 Y101.487 E0.25741
G1 X123.773 Y101.889 E0.26505
G1 X123.855 Y102.5 E0.27601
G1 X123.855 Y112.5 E0.45377
G1 X123.815 Y112.928 E0.46141
G1 X123.697 Y113.34 E0.46903
G1 X123.504 Y113.724 E0.47667
G1 X123.244 Y114.066 E0.48431
G1 X122.924 Y114.353 E0.49195
G1 X122.558 Y114.576 E0.49957
G1 X122.156 Y114.728 E0.50721
G1 X121.545 Y114.81 E0.51816
G1 X111.545 Y114.81 E0.69592
G1 X111.117 Y114.77 E0.70357
G1 X110.705 Y114.652 E0.71118
G1 X110.321 Y114.459 E0.71882
G1 X109.979 Y114.199 E0.72646
G1 X109.692 Y113.879 E0.7341
G1 X109.469 Y113.513 E0.74172
G1 X109.317 Y113.111 E0.74936
G1 X109.235 Y112.5 E0.76032
G1 X109.235 Y102.5 E0.93808
G1 X109.275 Y102.072 E0.94572
G1 X109.393 Y101.66 E0.95334
G1 X109.586 Y101.276 E0.96098
G1 X109.846 Y100.934 E0.96861
M204 S625
M205 X6 Y6
G0 F4285.7 X110.26 Y101.114
M204 S500
M205 X5 Y5
G1 F1200 X110.571 Y100.881 E0.97552
G1 X110.922 Y100.716 E0.98242
G1 X111.3 Y100.626 E0.98932
G1 X111.545 Y100.61 E0.99369
G1 X121.545 Y100.61 E1.17145
G1 X121.931 Y100.65 E1.17834
G1 X122.301 Y100.768 E1.18525
G1 X122.639 Y100.959 E1.19215
G1 X122.931 Y101.215 E1.19905
G1 X123.164 Y101.526 E1.20596
G1 X123.329 Y101.877 E1.21285
G1 X123.419 Y102.255 E1.21976
G1 X123.435 Y102.5 E1.22413
G1 X123.435 Y112.5 E1.40189
G1 X123.395 Y112.886 E1.40878
G1 X123.277 Y113.256 E1.41569
G1 X123.086 Y113.594 E1.42259
G1 X122.83 Y113.886 E1.42949
G1 X122.519 Y114.119 E1.4364
G1 X122.168 Y114.284 E1.44329
G1 X121.79 Y114.374 E1.4502
G1 X121.545 Y114.39 E1.45457
G1 X111.545 Y114.39 E1.63233
G1 X111.159 Y114.35 E1.63922
G1 X110.789 Y114.232 E1.64613
G1 X110.451 Y114.041 E1.65303
G1 X110.159 Y113.785 E1.65993
G1 X109.926 Y113.474 E1.66684
G1 X109.761 Y113.123 E1.67373
G1 X109.671 Y112.745 E1.68064
G1 X109.655 Y112.5 E1.685
G1 X109.655 Y102.5 E1.86276
G1 X109.695 Y102.114 E1.86966
G1 X109.813 Y101.744 E1.87657
G1 X110.004 Y101.406 E1.88347
G1 X110.26 Y101.114 E1.89037
M204 S625
M205 X6 Y6
G0 F4285.7 X110.421 Y101.553
M204 S500
M205 X5 Y5
G1 F1200 X110.671 Y101.318 E1.89647
G1 X110.968 Y101.148 E1.90255
G1 X111.296 Y101.051 E1.90863
G1 X111.545 Y101.03 E1.91307
G1 X121.545 Y101.03 E2.09083
G1 X121.885 Y101.07 E2.09692
G1 X122.207 Y101.187 E2.10301
G1 X122.492 Y101.376 E2.10909
G1 X122.727 Y101.626 E2.11519
G1 X122.897 Y101.923 E2.12127
G1 X122.994 Y102.251 E2.12735
G1 X123.015 Y102.5 E2.13179
G1 X123.015 Y112.5 E2.30955
G1 X122.975 Y112.84 E2.31564
G1 X122.858 Y113.162 E2.32173
G1 X122.669 Y113.447 E2.32781
G1 X122.419 Y113.682 E2.33391
G1 X122.122 Y113.852 E2.33999
G1 X121.794 Y113.949 E2.34607
G1 X121.545 Y113.97 E2.35051
G1 X111.545 Y113.97 E2.52827
G1 X111.205 Y113.93 E2.53436
G1 X110.883 Y113.813 E2.54045
G1 X110.598 Y113.624 E2.54653
G1 X110.363 Y113.374 E2.55263
G1 X110.193 Y113.077 E2.55871
G1 X110.096 Y112.749 E2.56479
G1 X110.075 Y112.5 E2.56923
G1 X110.075 Y102.5 E2.74699
G1 X110.115 Y102.16 E2.75308
G1 X110.232 Y101.838 E2.75917
G1 X110.421 Y101.553 E2.76524
M204 S625
M205 X6 Y6
G0 F4285.7 X110.835 Y101.726
M204 S500
M205 X5 Y5
G1 F1200 X111.073 Y101.562 E2.77038
G1 X111.347 Y101.469 E2.77553
G1 X111.545 Y101.45 E2.77906
G1 X121.545 Y101.45 E2.95682
G1 X121.831 Y101.49 E2.96195
G1 X122.096 Y101.606 E2.9671
G1 X122.319 Y101.79 E2.97224
G1 X122.483 Y102.028 E2.97737
G1 X122.576 Y102.302 E2.98252
G1 X122.595 Y102.5 E2.98605
G1 X122.595 Y112.5 E3.16381
G1 X122.555 Y112.786 E3.16895
G1 X122.439 Y113.051 E3.17409
G1 X122.255 Y113.274 E3.17923
G1 X122.017 Y113.438 E3.18437
G1 X121.743 Y113.531 E3.18951
G1 X121.545 Y113.55 E3.19305
G1 X111.545 Y113.55 E3.3708
G1 X111.259 Y113.51 E3.37594
G1 X110.994 Y113.394 E3.38108
G1 X110.771 Y113.21 E3.38622
G1 X110.607 Y112.972 E3.39136
G1 X110.514 Y112.698 E3.3965
G1 X110.495 Y112.5 E3.40004
G1 X110.495 Y102.5 E3.5778
G1 X110.535 Y102.214 E3.58293
G1 X110.651 Y101.949 E3.58807
G1 X110.835 Y101.726 E3.59321
M204 S625
M205 X6 Y6
G0 F4285.7 X111.069 Y102.088
M204 S500
M205 X5 Y5
G1 F1200 X111.243 Y101.947 E3.59719
G1 X111.545 Y101.87 E3.60273
G1 X121.545 Y101.87 E3.78049
G1 X121.765 Y101.91 E3.78447
G1 X121.957 Y102.024 E3.78844
G1 X122.098 Y102.198 E3.79242
G1 X122.175 Y102.5 E3.79796
G1 X122.175 Y112.5 E3.97572
G1 X122.135 Y112.72 E3.97969
G1 X122.021 Y112.912 E3.98366
G1 X121.847 Y113.053 E3.98764
G1 X121.545 Y113.13 E3.99318
G1 X111.545 Y113.13 E4.17094
G1 X111.325 Y113.09 E4.17492
G1 X111.133 Y112.976 E4.17889
G1 X110.992 Y112.802 E4.18287
G1 X110.915 Y112.5 E4.18841
G1 X110.915 Y102.5 E4.36617
G1 X110.955 Y102.28 E4.37014
G1 X111.069 Y102.088 E4.37411
M204 S625
M205 X6 Y6
G0 F4285.7 X111.374 Y102.378
M204 S500
M205 X5 Y5
G1 F1200 X111.545 Y102.29 E4.37753
G1 X121.545 Y102.29 E4.55529
G1 X121.667 Y102.329 E4.55757
G1 X121.755 Y102.5 E4.56099
G1 X121.755 Y112.5 E4.73874
G1 X121.716 Y112.622 E4.74102
G1 X121.545 Y112.71 E4.74444
G1 X111.545 Y112.71 E4.9222
G1 X111.423 Y112.671 E4.92448
G1 X111.335 Y112.5 E4.9279
G1 X111.335 Y102.5 E5.10566
G1 X111.374 Y102.378 E5.10793
M204 S625
M205 X6 Y6
G1 F1500 E-1.39207
;MESH:3cecd657-894a-4fa3-9302-9b7803a2670e.stl
G0 F4285.7 X112.159 Y103.114
G0 X120.875 Y111.83
G0 X121.335 Y112.29
M204 S500
M205 X5 Y5
;TYPE:WALL-OUTER
G1 F1500 E5.10793
G1 F1200 X111.755 Y112.29 E5.27823
G1 X111.755 Y102.71 E5.44852
G1 X121.335 Y102.71 E5.61881
G1 X121.335 Y112.29 E5.78911
M204 S625
M205 X6 Y6
G0 F4285.7 X121.135 Y112.29
G0 X120.873 Y111.828
G0 X120.945 Y111.9
M204 S500
M205 X5 Y5
;TYPE:WALL-INNER
G1 F1200 X112.145 Y111.9 E5.92319
G1 X112.145 Y103.1 E6.05727
G1 X120.945 Y103.1 E6.19135
G1 X120.945 Y111.9 E6.32543
M204 S625
M205 X6 Y6
G0 F4285.7 X120.585 Y111.54
M204 S500
M205 X5 Y5
G1 F1200 X112.505 Y111.54 E6.44855
G1 X112.505 Y103.46 E6.57166
G1 X120.585 Y103.46 E6.69477
G1 X120.585 Y111.54 E6.81788
M204 S625
M205 X6 Y6
G0 F4285.7 X120.205 Y111.16
M204 S500
M205 X5 Y5
;TYPE:SKIN
G1 F1200 X112.885 Y111.16 E6.948
G1 X112.885 Y103.84 E7.07812
G1 X120.205 Y103.84 E7.20824
G1 X120.205 Y111.16 E7.33836
M204 S625
M205 X6 Y6
G0 F4285.7 X120.026 Y104.583
M204 S500
M205 X5 Y5
G1 F1200 X119.461 Y104.018 E7.35256
M204 S625
M205 X6 Y6
G0 F4285.7 X118.867 Y104.018
M204 S500
M205 X5 Y5
G1 F1200 X120.026 Y105.177 E7.3817
M204 S625
M205 X6 Y6
G0 F4285.7 X120.026 Y105.771
M204 S500
M205 X5 Y5
G1 F1200 X118.273 Y104.018 E7.42577
M204 S625
M205 X6 Y6
G0 F4285.7 X117.679 Y104.018
M204 S500
M205 X5 Y5
G1 F1200 X120.026 Y106.365 E7.48477
M204 S625
M205 X6 Y6
G0 F4285.7 X120.026 Y106.959
M204 S500
M205 X5 Y5
G1 F1200 X117.085 Y104.018 E7.5587
M204 S625
M205 X6 Y6
G0 F4285.7 X116.491 Y104.018
M204 S500
M205 X5 Y5
G1 F1200 X120.026 Y107.553 E7.64757
M204 S625
M205 X6 Y6
G0 F4285.7 X120.026 Y108.147
M204 S500
M205 X5 Y5
G1 F1200 X115.897 Y104.018 E7.75137
M204 S625
M205 X6 Y6
G0 F4285.7 X115.303 Y104.018
M204 S500
M205 X5 Y5
G1 F1200 X120.026 Y108.741 E7.8701
M204 S625
M205 X6 Y6
G0 F4285.7 X120.026 Y109.334
M204 S500
M205 X5 Y5
G1 F1200 X114.709 Y104.018 E8.00375
M204 S625
M205 X6 Y6
G0 F4285.7 X114.115 Y104.018
M204 S500
M205 X5 Y5
G1 F1200 X120.026 Y109.928 E8.15234
M204 S625
M205 X6 Y6
G0 F4285.7 X120.026 Y110.522
M204 S500
M205 X5 Y5
G1 F1200 X113.521 Y104.018 E8.31585
M204 S625
M205 X6 Y6
G0 F4285.7 X113.062 Y104.152
M204 S500
M205 X5 Y5
G1 F1200 X119.891 Y110.981 E8.48753
M204 S625
M205 X6 Y6
G0 F4285.7 X119.297 Y110.981
M204 S500
M205 X5 Y5
G1 F1200 X113.062 Y104.746 E8.64427
M204 S625
M205 X6 Y6
G0 F4285.7 X113.062 Y105.34
M204 S500
M205 X5 Y5
G1 F1200 X118.703 Y110.981 E8.78608
M204 S625
M205 X6 Y6
G0 F4285.7 X118.109 Y110.981
M104 S200
M204 S500
M205 X5 Y5
G1 F1200 X113.062 Y105.934 E8.91296
M204 S625
M205 X6 Y6
G0 F4285.7 X113.062 Y106.528
M204 S500
M205 X5 Y5
G1 F1200 X117.515 Y110.981 E9.0249
M204 S625
M205 X6 Y6
G0 F4285.7 X116.921 Y110.981
M204 S500
M205 X5 Y5
G1 F1200 X113.062 Y107.122 E9.12191
M204 S625
M205 X6 Y6
G0 F4285.7 X113.062 Y107.716
M204 S500
M205 X5 Y5
G1 F1200 X116.327 Y110.981 E9.20399
M204 S625
M205 X6 Y6
G0 F4285.7 X115.733 Y110.981
M204 S500
M205 X5 Y5
G1 F1200 X113.062 Y108.31 E9.27114
M204 S625
M205 X6 Y6
G0 F4285.7 X113.062 Y108.904
M204 S500
M205 X5 Y5
G1 F1200 X115.139 Y110.981 E9.32335
M204 S625
M205 X6 Y6
G0 F4285.7 X114.545 Y110.981
M204 S500
M205 X5 Y5
G1 F1200 X113.062 Y109.498 E9.36063
M204 S625
M205 X6 Y6
G0 F4285.7 X113.062 Y110.092
M204 S500
M205 X5 Y5
G1 F1200 X113.951 Y110.981 E9.38298
M204 S625
M205 X6 Y6
G0 F4285.7 X113.357 Y110.981
M204 S500
M205 X5 Y5
G1 F1200 X113.062 Y110.686 E9.3904
M204 S625
M205 X6 Y6
;MESH:NONMESH
G0 F600 X113.062 Y110.686 Z0.37
G0 F4285.7 X120.745 Y111.7
;TIME_ELAPSED:34.344188
;LAYER:1
M106 S85
M204 S750
M205 X7.5 Y7.5
;TYPE:WALL-INNER
;MESH:3cecd657-894a-4fa3-9302-9b7803a2670e.stl
G1 F1500 X112.345 Y111.7 E9.4299
G1 X112.345 Y103.3 E9.4694
G1 X120.745 Y103.3 E9.5089
G1 X120.745 Y111.7 E9.5484
M204 S2812
M205 X18 Y18
G0 F9642.9 X121.045 Y112
M204 S750
M205 X7.5 Y7.5
G1 F1500 X112.045 Y112 E9.59073
G1 X112.045 Y103 E9.63305
G1 X121.045 Y103 E9.67538
G1 X121.045 Y112 E9.7177
M204 S2812
M205 X18 Y18
G0 F9642.9 X121.37 Y112.325
M204 S500
M205 X5 Y5
;TYPE:WALL-OUTER
G1 F1200 X111.72 Y112.325 E9.77064
G1 X111.72 Y102.675 E9.82359
G1 X121.37 Y102.675 E9.87653
G1 X121.37 Y112.325 E9.92947
M204 S2812
M205 X18 Y18
G0 F9642.9 X121.17 Y112.325
G0 X120.985 Y111.94
G0 X120.43 Y111.385
M204 S500
M205 X5 Y5
;TYPE:SKIN
G1 F1500 X112.66 Y111.385 E9.9721
G1 X112.66 Y103.615 E10.01473
G1 X120.43 Y103.615 E10.05736
G1 X120.43 Y111.385 E10.09999
M204 S2812
M205 X18 Y18
G0 F9642.9 X120.285 Y110.867
M204 S500
M205 X5 Y5
G1 F1500 X119.911 Y111.242 E10.1029
M204 S2812
M205 X18 Y18
G0 F9642.9 X119.416 Y111.242
M204 S500
M205 X5 Y5
G1 F1500 X120.285 Y110.372 E10.10964
M204 S2812
M205 X18 Y18
G0 F9642.9 X120.285 Y109.877
M204 S500
M205 X5 Y5
G1 F1500 X118.921 Y111.242 E10.12023
M204 S2812
M205 X18 Y18
G0 F9642.9 X118.426 Y111.242
M204 S500
M205 X5 Y5
G1 F1500 X120.285 Y109.382 E10.13466
M204 S2812
M205 X18 Y18
G0 F9642.9 X120.285 Y108.887
M204 S500
M205 X5 Y5
G1 F1500 X117.931 Y111.242 E10.15293
M204 S2812
M205 X18 Y18
G0 F9642.9 X117.436 Y111.242
M204 S500
M205 X5 Y5
G1 F1500 X120.285 Y108.392 E10.17504
M204 S2812
M205 X18 Y18
G0 F9642.9 X120.285 Y107.897
M204 S500
M205 X5 Y5
G1 F1500 X116.941 Y111.242 E10.20099
M204 S2812
M205 X18 Y18
G0 F9642.9 X116.446 Y111.242
M204 S500
M205 X5 Y5
G1 F1500 X120.285 Y107.402 E10.23078
M204 S2812
M205 X18 Y18
G0 F9642.9 X120.285 Y106.907
M204 S500
M205 X5 Y5
G1 F1500 X115.951 Y111.242 E10.26441
M204 S2812
M205 X18 Y18
G0 F9642.9 X115.456 Y111.242
M204 S500
M205 X5 Y5
G1 F1500 X120.285 Y106.412 E10.30188
M204 S2812
M205 X18 Y18
G0 F9642.9 X120.285 Y105.917
M204 S500
M205 X5 Y5
G1 F1500 X114.961 Y111.242 E10.34319
M204 S2812
M205 X18 Y18
G0 F9642.9 X114.466 Y111.242
M204 S500
M205 X5 Y5
G1 F1500 X120.285 Y105.422 E10.38835
M204 S2812
M205 X18 Y18
G0 F9642.9 X120.285 Y104.927
M204 S500
M205 X5 Y5
G1 F1500 X113.971 Y111.242 E10.43734
M204 S2812
M205 X18 Y18
G0 F9642.9 X113.476 Y111.242
M204 S500
M205 X5 Y5
G1 F1500 X120.285 Y104.432 E10.49018
M204 S2812
M205 X18 Y18
G0 F9642.9 X120.285 Y103.937
M204 S500
M205 X5 Y5
G1 F1500 X112.981 Y111.242 E10.54685
M204 S2812
M205 X18 Y18
G0 F9642.9 X112.801 Y110.926
M204 S500
M205 X5 Y5
G1 F1500 X119.97 Y103.758 E10.60247
M204 S2812
M205 X18 Y18
G0 F9642.9 X119.475 Y103.758
M204 S500
M205 X5 Y5
G1 F1500 X112.801 Y110.431 E10.65425
M204 S2812
M205 X18 Y18
G0 F9642.9 X112.801 Y109.936
M204 S500
M205 X5 Y5
G1 F1500 X118.98 Y103.758 E10.70219
M204 S2812
M205 X18 Y18
G0 F9642.9 X118.485 Y103.758
M204 S500
M205 X5 Y5
G1 F1500 X112.801 Y109.441 E10.74629
M204 S2812
M205 X18 Y18
G0 F9642.9 X112.801 Y108.946
M204 S500
M205 X5 Y5
G1 F1500 X117.99 Y103.758 E10.78654
M204 S2812
M205 X18 Y18
G0 F9642.9 X117.495 Y103.758
M204 S500
M205 X5 Y5
G1 F1500 X112.801 Y108.451 E10.82296
M204 S2812
M205 X18 Y18
G0 F9642.9 X112.801 Y107.956
M204 S500
M205 X5 Y5
G1 F1500 X117 Y103.758 E10.85554
M204 S2812
M205 X18 Y18
G0 F9642.9 X116.505 Y103.758
M204 S500
M205 X5 Y5
G1 F1500 X112.801 Y107.461 E10.88427
M204 S2812
M205 X18 Y18
G0 F9642.9 X112.801 Y106.966
M204 S500
M205 X5 Y5
G1 F1500 X116.01 Y103.758 E10.90917
M204 S2812
M205 X18 Y18
G0 F9642.9 X115.515 Y103.758
M204 S500
M205 X5 Y5
G1 F1500 X112.801 Y106.471 E10.93022
M204 S2812
M205 X18 Y18
G0 F9642.9 X112.801 Y105.976
M204 S500
M205 X5 Y5
G1 F1500 X115.02 Y103.758 E10.94743
M204 S2812
M205 X18 Y18
G0 F9642.9 X114.525 Y103.758
M204 S500
M205 X5 Y5
G1 F1500 X112.801 Y105.481 E10.96081
M204 S2812
M205 X18 Y18
G0 F9642.9 X112.801 Y104.986
M204 S500
M205 X5 Y5
G1 F1500 X114.03 Y103.758 E10.97034
M204 S2812
M205 X18 Y18
G0 F9642.9 X113.535 Y103.758
M204 S500
M205 X5 Y5
G1 F1500 X112.801 Y104.491 E10.97603
M204 S2812
M205 X18 Y18
G0 F9642.9 X112.801 Y103.997
M204 S500
M205 X5 Y5
G1 F1500 X113.04 Y103.758 E10.97788
M204 S2812
M205 X18 Y18
;MESH:NONMESH
G0 F600 X113.04 Y103.758 Z0.47
G0 F9642.9 X120.745 Y111.7
;TIME_ELAPSED:48.756120
;LAYER:2
M106 S170
M204 S1000
M205 X10 Y10
;TYPE:WALL-INNER
;MESH:3cecd657-894a-4fa3-9302-9b7803a2670e.stl
G1 F1800 X112.345 Y111.7 E11.01739
G1 X112.345 Y103.3 E11.05689
G1 X120.745 Y103.3 E11.09639
G1 X120.745 Y111.7 E11.13589
M204 S5000
M205 X30 Y30
G0 F15000 X121.045 Y112
M204 S1000
M205 X10 Y10
G1 F1800 X112.045 Y112 E11.17822
G1 X112.045 Y103 E11.22054
G1 X121.045 Y103 E11.26286
G1 X121.045 Y112 E11.30519
M204 S5000
M205 X30 Y30
G0 F15000 X121.37 Y112.325
M204 S500
M205 X5 Y5
;TYPE:WALL-OUTER
G1 F1200 X111.72 Y112.325 E11.35813
G1 X111.72 Y102.675 E11.41108
G1 X121.37 Y102.675 E11.46402
G1 X121.37 Y112.325 E11.51696
M204 S5000
M205 X30 Y30
G0 F15000 X121.17 Y112.325
G0 X120.985 Y111.94
G0 X120.43 Y111.385
M204 S500
M205 X5 Y5
;TYPE:SKIN
G1 F1800 X112.66 Y111.385 E11.55959
G1 X112.66 Y103.615 E11.60222
G1 X120.43 Y103.615 E11.64485
G1 X120.43 Y111.385 E11.68748
M204 S5000
M205 X30 Y30
G0 F15000 X120.285 Y103.951
M204 S500
M205 X5 Y5
G1 F1800 X120.092 Y103.758 E11.68898
M204 S5000
M205 X30 Y30
G0 F15000 X119.597 Y103.758
M204 S500
M205 X5 Y5
G1 F1800 X120.285 Y104.446 E11.69432
M204 S5000
M205 X30 Y30
G0 F15000 X120.285 Y104.941
M204 S500
M205 X5 Y5
G1 F1800 X119.102 Y103.758 E11.7035
M204 S5000
M205 X30 Y30
G0 F15000 X118.607 Y103.758
M204 S500
M205 X5 Y5
G1 F1800 X120.285 Y105.436 E11.71651
M204 S5000
M205 X30 Y30
G0 F15000 X120.285 Y105.931
M204 S500
M205 X5 Y5
G1 F1800 X118.112 Y103.758 E11.73338
M204 S5000
M205 X30 Y30
G0 F15000 X117.617 Y103.758
M204 S500
M205 X5 Y5
G1 F1800 X120.285 Y106.426 E11.75408
M204 S5000
M205 X30 Y30
G0 F15000 X120.285 Y106.921
M204 S500
M205 X5 Y5
G1 F1800 X117.122 Y103.758 E11.77862
M204 S5000
M205 X30 Y30
G0 F15000 X116.627 Y103.758
M204 S500
M205 X5 Y5
G1 F1800 X120.285 Y107.416 E11.807
M204 S5000
M205 X30 Y30
G0 F15000 X120.285 Y107.911
M204 S500
M205 X5 Y5
G1 F1800 X116.132 Y103.758 E11.83922
M204 S5000
M205 X30 Y30
G0 F15000 X115.637 Y103.758
M204 S500
M205 X5 Y5
G1 F1800 X120.285 Y108.406 E11.87529
M204 S5000
M205 X30 Y30
